!!!!SEGMENT: pl-cz--iii-554--001-005_raszek-waclaw--missa-ex-c-quoniam.krn
!!!cenid: 17xx:1026
!!!COM: Raszek, Wacław
!!!COM-rismID: pe30020314
!!!CDT: <1848->1848
!!!CNT:
!!!OPR: Missa ex C
!!!OTL: Quoniam
!!!OMV: 005
!!!PDT: 1780
!!!AGN: Sacred; Mass
!!!SMS-siglum: PL-CZ
!!!SMS-shelfmark: III-554
!!!SMS-shelfwork: 001-005 M
!!!SMS-variant:
!!!SMS-altvar:
!!!NIFC-rismSourceID: 300001043
!!!NIFC-islandoraID: pl-cz:38848
!!!URL-pdf-islandora: https://repozytorium.nifc.pl/islandora/object/pl-cz%3A38848/datastream/PDF/view
!!!URL-scan:
!!!ONB-nifc: UWAGA: części Mszy: Kyrie, Gloria, Laudamus, Qui tollis, Quoniam, Cum sancto spiritu, Credo, Et incarnatus, Et resurrexit, Sanctus, Benedictus, Agnus Dei, Dona nobis
!!!AIN: 1 alto 1 bass 1 cello 2 oboe 1 soprn 1 tenor 2 tromp 1 viola 2 violn
!!!key: G
**kern	**fba	**dynam	**kern	**dynam	**kern	**dynam	**kern	**dynam	**kern	**kern	**kern	**kern	**text	**kern	**kern	**kern	**dynam	**kern	**dynam
*part12	*part12	*part12	*part11	*part11	*part10	*part10	*part9	*part9	*part8	*part7	*part6	*part5	*part5	*part4	*part3	*part2	*part2	*part1	*part1
*staff12	*	*	*staff11	*	*staff10	*	*staff9	*	*staff8	*staff7	*staff6	*staff5	*staff5	*staff4	*staff3	*staff2	*	*staff1	*
*IGcont	*	*	*IGacmp	*	*IGacmp	*	*IGacmp	*	*IGcoro	*IGcoro	*IGcoro	*IGsolo	*	*IGacmp	*IGacmp	*IGacmp	*	*IGacmp	*
*ICstr	*	*	*ICstr	*	*ICstr	*	*ICstr	*	*ICvox	*ICvox	*ICvox	*ICvox	*	*ICbras	*ICbras	*ICww	*	*ICww	*
*Icello	*	*	*Iviola	*	*Ivioln	*	*Ivioln	*	*Ibass	*Itenor	*Ialto	*Isoprn	*	*Itromp	*Itromp	*Ioboe	*	*Ioboe	*
*I"Violone.	*	*	*I"Viola di Alto. oblig.	*	*I"Violino 2do.	*	*I"Violino I.mo	*	*I"Basſo.	*I"Tenore.	*I"Alto.	*I"Canto.	*	*I"Clarino 2.do Ex C.	*I"Clarino I.mo Ex C.	*I"Oboe Secundo.	*	*I"Oboe Primo.	*
*I'vlne	*	*	*I'a-vla	*	*I'vl 2	*	*I'vl 1	*	*I'B	*I'T	*I'A	*I'S	*	*I'clno 2 in C	*I'clno 2 in C	*I'ob 2	*	*I'ob 1	*
*clefF4	*	*	*clefC3	*	*clefG2	*	*clefG2	*	*clefF4	*clefC4	*clefC3	*clefC1	*	*clefG2	*clefG2	*clefG2	*	*clefG2	*
*	*	*	*	*	*	*	*	*	*	*ITrd0c0	*	*	*	*ITrd-4c-7	*ITrd-4c-7	*	*	*	*
*k[f#]	*	*	*k[f#]	*	*k[f#]	*	*k[f#]	*	*k[f#]	*k[f#]	*k[f#]	*k[f#]	*	*k[f#]	*k[f#]	*k[f#]	*	*k[f#]	*
*G:	*	*	*G:	*	*G:	*	*G:	*	*G:	*G:	*G:	*G:	*	*	*	*G:	*	*G:	*
*M3/4	*	*	*M3/4	*	*M3/4	*	*M3/4	*	*M3/4	*M3/4	*M3/4	*M3/4	*	*M3/4	*M3/4	*M3/4	*	*M3/4	*
*all\right	*	*	*all\right	*	*all\right	*	*all\right	*	*all\right	*all\right	*all\right	*all\right	*	*all\right	*all\right	*all\right	*	*all\right	*
*2\right	*	*	*2\right	*	*2\right	*	*2\right	*	*2\right	*2\right	*2\right	*2\right	*	*2\right	*2\right	*2\right	*	*2\right	*
=1	=1	=1	=1	=1	=1	=1	=1	=1	=1	=1	=1	=1	=1	=1	=1	=1	=1	=1	=1
!	!	!	!	!	!	!	!	!	!	!	!	!	!	!	!	!	!	!	!
!	!	!	!	!	!	!	!	!	!	!	!	!	!	!	!	!	!	!	!
!	!	!	!	!	!	!	!	!	!	!	!	!LO:TX:a:t=Allo. n molto:rj	!	!LO:TX:a:t=Allo.	!LO:TX:a:t=Allo.	!	!	!	!
!LO:TX:a:t=allo. mode.:rj	!	!LO:DY:a:t=f&colon;	!LO:TX:a:t=Allo.:rj	!LO:DY:a:t=for&colon;	!LO:TX:a:t=Allo.:rj	!LO:DY:a:t=f&colon;	!LO:TX:a:t=allo.:rj	!LO:DY:a	!LO:TX:a:t=Quoniam Tacet.	!LO:TX:a:t=Quoniam Tacet.	!LO:TX:a:t=Quoniam Tacet.	!LO:TX:a:t=26.	!	!LO:TX:a:t=Quoniam Ex G. Cornu\nEx G.	!LO:TX:a:t=Quoniam Ex G. Cornu\nEx G.	!LO:TX:a:t=allo.:rj	!	!LO:TX:a:t=Allo. n molto.	!
4GG/	.	f	4g\	f	4d/ 4b	f	4d/ 4b 4gg	f	2.ryy	2.ryy	2.ryy	0.r	.	4b/	4gg\	4b\	.	4gg\	.
4BB/	.	.	4d\	.	4d/ 4b	.	4d/ 4b 4gg	.	.	.	.	.	.	4b/	4gg\	4b\	.	4gg\	.
4D/	.	.	4B/	.	4d/ 4b	.	4d/ 4b 4gg	.	.	.	.	.	.	4b/	4gg\	4b\	.	4gg\	.
=2	=2	=2	=2	=2	=2	=2	=2	=2	=2	=2	=2	=2	=2	=2	=2	=2	=2	=2	=2
!	!	!	!	!	!	!	!	!LO:DY:a	!	!	!	!	!	!	!	!	!	!	!
4G\	.	.	4G/	.	4d/ 4b	.	16gg'\LL	f	2.ryy	2.ryy	2.ryy	.	.	4b/	4gg\	4b\	.	4gg\	.
.	.	.	.	.	.	.	16dd'\	.	.	.	.	.	.	.	.	.	.	.	.
.	.	.	.	.	.	.	16ee'\	.	.	.	.	.	.	.	.	.	.	.	.
.	.	.	.	.	.	.	16ff#X'\JJ	.	.	.	.	.	.	.	.	.	.	.	.
4r	.	.	4r	.	4r	.	16gg'\LL	.	.	.	.	.	.	4r	4r	4r	.	4r	.
.	.	.	.	.	.	.	16dd'\	.	.	.	.	.	.	.	.	.	.	.	.
.	.	.	.	.	.	.	16bb'\	.	.	.	.	.	.	.	.	.	.	.	.
.	.	.	.	.	.	.	16aa'\JJ	.	.	.	.	.	.	.	.	.	.	.	.
4r	.	.	4r	.	4r	.	16gg'\LL	.	.	.	.	.	.	4r	4r	4r	.	4r	.
.	.	.	.	.	.	.	16ff#'\	.	.	.	.	.	.	.	.	.	.	.	.
.	.	.	.	.	.	.	16ee'\	.	.	.	.	.	.	.	.	.	.	.	.
.	.	.	.	.	.	.	16dd'\JJ	.	.	.	.	.	.	.	.	.	.	.	.
=3	=3	=3	=3	=3	=3	=3	=3	=3	=3	=3	=3	=3	=3	=3	=3	=3	=3	=3	=3
*tremolo	*	*	*	*	*	*	*	*	*	*	*	*	*	*	*	*	*	*	*
*	*	*	*tremolo	*	*	*	*	*	*	*	*	*	*	*	*	*	*	*	*
!	!	!	!	!	!	!	!	!	!	!	!	!	!	!	!	!	!	!	!
.	.	.	.	.	.	.	8qdd#X/	.	.	.	.	.	.	.	.	.	.	.	.
8G\L	.	.	8g\L	.	8cc\L	.	4ee\	.	2.ryy	2.ryy	2.ryy	.	.	4g/	4gg\	2.cc\	.	2.ee\	.
8G\	.	.	8g\	.	8cc\	.	.	.	.	.	.	.	.	.	.	.	.	.	.
*	*	*	*	*	*	*	*	*	*	*	*	*	*	*tremolo	*	*	*	*	*
8G\	.	.	8g\	.	8cc\	.	16ee\LL	.	.	.	.	.	.	8g/L	8gg\L	.	.	.	.
.	.	.	.	.	.	.	16gg\	.	.	.	.	.	.	.	.	.	.	.	.
8G\	.	.	8g\	.	8cc\	.	16ff#\	.	.	.	.	.	.	8g/	8gg\	.	.	.	.
.	.	.	.	.	.	.	16gg\JJ	.	.	.	.	.	.	.	.	.	.	.	.
.	.	.	.	.	.	.	8qaa/	.	.	.	.	.	.	.	.	.	.	.	.
8G\	.	.	8g\	.	8cc\	.	16gg\LL	.	.	.	.	.	.	8g/	8gg\	.	.	.	.
.	.	.	.	.	.	.	16ff#\	.	.	.	.	.	.	.	.	.	.	.	.
8G\J	.	.	8g\J	.	8cc\J	.	16ee\	.	.	.	.	.	.	8g/J	8gg\J	.	.	.	.
.	.	.	.	.	.	.	16dd#\JJ	.	.	.	.	.	.	.	.	.	.	.	.
=4	=4	=4	=4	=4	=4	=4	=4	=4	=4	=4	=4	=4	=4	=4	=4	=4	=4	=4	=4
*	*	*	*Xtremolo	*	*	*	*	*	*	*	*	*	*	*	*tremolo	*	*	*	*
!	!	!	!LO:TX:t=P:problem=mixed beam	!	!	!	!	!	!	!	!	!	!	!	!	!	!	!	!
8G\L	.	.	16G/LL	.	8cc\L	.	8ee\L	.	2.ryy	2.ryy	2.ryy	.	.	8g/L	8gg\L	2.b\	.	2.dd\	.
.	.	.	16g\	.	.	.	.	.	.	.	.	.	.	.	.	.	.	.	.
8G\	.	.	16f#\	.	8b\J	.	8dd\J	.	.	.	.	.	.	8g/	8gg\	.	.	.	.
.	.	.	16g\JJ	.	.	.	.	.	.	.	.	.	.	.	.	.	.	.	.
*	*	*	*	*	*tremolo	*	*	*	*	*	*	*	*	*	*	*	*	*	*
!	!	!	!	!	!	!	!	!	!	!	!	!	!	!	!	!	!	!	!
8G\	.	.	16a\LL	.	8b\L	.	2dd\	.	.	.	.	.	.	8g/	8gg\	.	.	.	.
.	.	.	16g\	.	.	.	.	.	.	.	.	.	.	.	.	.	.	.	.
8G\	.	.	16f#\	.	8b\	.	.	.	.	.	.	.	.	8g/	8gg\	.	.	.	.
.	.	.	16g\JJ	.	.	.	.	.	.	.	.	.	.	.	.	.	.	.	.
8G\	.	.	16b\LL	.	8b\	.	.	.	.	.	.	.	.	8g/	8gg\	.	.	.	.
.	.	.	16g\	.	.	.	.	.	.	.	.	.	.	.	.	.	.	.	.
8G\J	.	.	16f#\	.	8b\J	.	.	.	.	.	.	.	.	8g/J	8gg\J	.	.	.	.
.	.	.	16g\JJ	.	.	.	.	.	.	.	.	.	.	.	.	.	.	.	.
*	*	*	*	*	*	*	*	*	*	*	*	*	*	*	*	*	*	*	*
=5	=5	=5	=5	=5	=5	=5	=5	=5	=5	=5	=5	=5	=5	=5	=5	=5	=5	=5	=5
8G\L	.	.	8d\L	.	8a/L	.	4cc\	.	2.ryy	2.ryy	2.ryy	0.r	.	8dd/L	8aa\L	2.a/	.	2.cc\	.
8G\	.	.	8f#\J	.	8a/	.	.	.	.	.	.	.	.	8dd/	8aa\	.	.	.	.
*	*	*	*tremolo	*	*	*	*	*	*	*	*	*	*	*	*	*	*	*	*
8G\	.	.	8f#\L	.	8a/	.	16cc\LL	.	.	.	.	.	.	8dd/	8aa\	.	.	.	.
.	.	.	.	.	.	.	16dd\	.	.	.	.	.	.	.	.	.	.	.	.
8G\	.	.	8f#\	.	8a/	.	16cc\	.	.	.	.	.	.	8dd/	8aa\	.	.	.	.
.	.	.	.	.	.	.	16dd\JJ	.	.	.	.	.	.	.	.	.	.	.	.
.	.	.	.	.	.	.	8qff#/	.	.	.	.	.	.	.	.	.	.	.	.
8G\	.	.	8f#\	.	8a/	.	8ee\L	.	.	.	.	.	.	8dd/	8aa\	.	.	.	.
8G\J	.	.	8f#\J	.	8a/J	.	16dd\L	.	.	.	.	.	.	8dd/J	8aa\J	.	.	.	.
.	.	.	.	.	.	.	16cc\JJ	.	.	.	.	.	.	.	.	.	.	.	.
*	*	*	*Xtremolo	*	*Xtremolo	*	*	*	*	*	*	*	*	*	*	*	*	*	*
=6	=6	=6	=6	=6	=6	=6	=6	=6	=6	=6	=6	=6	=6	=6	=6	=6	=6	=6	=6
!	!	!	!LO:TX:t=P:problem=mixed beam	!	!	!	!	!	!	!	!	!	!	!	!	!	!	!	!
.	.	.	.	.	.	.	8qdd/	.	.	.	.	.	.	.	.	.	.	.	.
!	!	!	!	!	!	!	!	!	!	!	!	!	!	!	!	!	!	!	!
8G\L	.	.	16G/LL	.	8a/L	.	8cc\L	.	2.ryy	2.ryy	2.ryy	.	.	8g/L	8gg\L	2.g/	.	2.b\	.
.	.	.	16g\	.	.	.	.	.	.	.	.	.	.	.	.	.	.	.	.
8G\	.	.	16f#\	.	8g/J	.	8b\J	.	.	.	.	.	.	8g/	8gg\	.	.	.	.
.	.	.	16g\JJ	.	.	.	.	.	.	.	.	.	.	.	.	.	.	.	.
*	*	*	*	*	*tremolo	*	*	*	*	*	*	*	*	*	*	*	*	*	*
!	!	!	!	!	!	!	!	!LO:DY:t=pia&colon;	!	!	!	!	!	!	!	!	!	!	!
8G\	.	.	16a\LL	.	8g/L	.	2b\	p	.	.	.	.	.	8g/	8gg\	.	.	.	.
.	.	.	16g\	.	.	.	.	.	.	.	.	.	.	.	.	.	.	.	.
8G\	.	.	16f#\	.	8g/	.	.	.	.	.	.	.	.	8g/	8gg\	.	.	.	.
.	.	.	16g\JJ	.	.	.	.	.	.	.	.	.	.	.	.	.	.	.	.
8G\	.	.	16d\LL	.	8g/	.	.	.	.	.	.	.	.	8g/	8gg\	.	.	.	.
.	.	.	16B\	.	.	.	.	.	.	.	.	.	.	.	.	.	.	.	.
8G\J	.	.	16d\	.	8g/J	.	.	.	.	.	.	.	.	8g/J	8gg\J	.	.	.	.
.	.	.	16B\JJ	.	.	.	.	.	.	.	.	.	.	.	.	.	.	.	.
*	*	*	*	*	*	*	*	*	*	*	*	*	*	*Xtremolo	*Xtremolo	*	*	*	*
=7	=7	=7	=7	=7	=7	=7	=7	=7	=7	=7	=7	=7	=7	=7	=7	=7	=7	=7	=7
!	!	!	!	!	!	!	!	!	!	!	!	!	!	!	!LO:TX:t=P:problem=wykreślona kreska taktowa	!	!	!	!
!	!	!LO:DY:a:t=p&colon;:rj	!LO:TX:t=P:problem=mixed beam	!LO:DY:a:t=pia&colon;	!	!	!	!	!	!	!	!	!	!	!LO:TX:a:t=5	!	!LO:DY:a:t=p&colon;	!	!LO:DY:a:t=pia&colon;
8G\L	.	p	8G/L	p	8cc\L	.	4ee\	.	2.ryy	2.ryy	2.ryy	.	.	0.r	0.r	2.cc\	p	2.ee\	p
8G\	.	.	8g\J	.	8cc\	.	.	.	.	.	.	.	.	.	.	.	.	.	.
*	*	*	*tremolo	*	*	*	*	*	*	*	*	*	*	*	*	*	*	*	*
!	!	!	!	!	!	!	!	!	!	!	!	!	!	!	!	!	!	!	!
8G\	.	.	8g\L	.	8cc\	.	16ee\LL	.	.	.	.	.	.	.	.	.	.	.	.
.	.	.	.	.	.	.	16ff#\	.	.	.	.	.	.	.	.	.	.	.	.
8G\	.	.	8g\	.	8cc\	.	16gg\	.	.	.	.	.	.	.	.	.	.	.	.
.	.	.	.	.	.	.	16ff#\JJ	.	.	.	.	.	.	.	.	.	.	.	.
!	!	!	!	!	!	!	!LO:LB:g=original	!	!	!	!	!	!	!	!	!	!	!	!
.	.	.	.	.	.	.	8qaa/	.	.	.	.	.	.	.	.	.	.	.	.
8G\	.	.	8g\	.	8cc\	.	8gg\L	.	.	.	.	.	.	.	.	.	.	.	.
*	*	*	*custos:G	*	*	*	*	*	*	*	*	*	*	*	*	*	*	*	*
8G\J	.	.	8g\J	.	8cc\J	.	16ff#\L	.	.	.	.	.	.	.	.	.	.	.	.
.	.	.	.	.	.	.	16ee\JJ	.	.	.	.	.	.	.	.	.	.	.	.
*	*	*	*Xtremolo	*	*Xtremolo	*	*	*	*	*	*	*	*	*	*	*	*	*	*
=8	=8	=8	=8	=8	=8	=8	=8	=8	=8	=8	=8	=8	=8	=8	=8	=8	=8	=8	=8
!	!	!	!LO:TX:t=P:problem=mixed beam	!	!	!	!	!	!	!	!	!	!	!	!	!	!	!	!
8G\L	.	.	16G/LL	.	8cc\L	.	8ee\L	.	2.ryy	2.ryy	2.ryy	.	.	.	.	2.b\	.	2.dd\	.
.	.	.	16g\	.	.	.	.	.	.	.	.	.	.	.	.	.	.	.	.
8G\	.	.	16f#\	.	8b\J	.	8dd\J	.	.	.	.	.	.	.	.	.	.	.	.
.	.	.	16g\JJ	.	.	.	.	.	.	.	.	.	.	.	.	.	.	.	.
*	*	*	*	*	*tremolo	*	*	*	*	*	*	*	*	*	*	*	*	*	*
8G\	.	.	16a\LL	.	8b\L	.	2dd\	.	.	.	.	.	.	.	.	.	.	.	.
.	.	.	16g\	.	.	.	.	.	.	.	.	.	.	.	.	.	.	.	.
8G\	.	.	16f#\	.	8b\	.	.	.	.	.	.	.	.	.	.	.	.	.	.
.	.	.	16g\JJ	.	.	.	.	.	.	.	.	.	.	.	.	.	.	.	.
8G\	.	.	16b\LL	.	8b\	.	.	.	.	.	.	.	.	.	.	.	.	.	.
.	.	.	16g\	.	.	.	.	.	.	.	.	.	.	.	.	.	.	.	.
8G\J	.	.	16f#\	.	8b\J	.	.	.	.	.	.	.	.	.	.	.	.	.	.
.	.	.	16g\JJ	.	.	.	.	.	.	.	.	.	.	.	.	.	.	.	.
=9	=9	=9	=9	=9	=9	=9	=9	=9	=9	=9	=9	=9	=9	=9	=9	=9	=9	=9	=9
8G\L	.	.	8d\L	.	8a/L	.	4cc\	.	2.ryy	2.ryy	2.ryy	0.r	.	.	.	2.a/	.	2.cc\	.
8G\	.	.	8f#\J	.	8a/	.	.	.	.	.	.	.	.	.	.	.	.	.	.
*	*	*	*tremolo	*	*	*	*	*	*	*	*	*	*	*	*	*	*	*	*
8G\	.	.	8f#\L	.	8a/	.	16cc\LL	.	.	.	.	.	.	.	.	.	.	.	.
.	.	.	.	.	.	.	16dd\	.	.	.	.	.	.	.	.	.	.	.	.
8G\	.	.	8f#\	.	8a/	.	16cc\	.	.	.	.	.	.	.	.	.	.	.	.
.	.	.	.	.	.	.	16dd\JJ	.	.	.	.	.	.	.	.	.	.	.	.
.	.	.	.	.	.	.	8qff#/	.	.	.	.	.	.	.	.	.	.	.	.
8G\	.	.	8f#\	.	8a/	.	8ee\L	.	.	.	.	.	.	.	.	.	.	.	.
8G\J	.	.	8f#\J	.	8a/J	.	16dd\L	.	.	.	.	.	.	.	.	.	.	.	.
.	.	.	.	.	.	.	16cc\JJ	.	.	.	.	.	.	.	.	.	.	.	.
*	*	*	*Xtremolo	*	*	*	*	*	*	*	*	*	*	*	*	*	*	*	*
=10	=10	=10	=10	=10	=10	=10	=10	=10	=10	=10	=10	=10	=10	=10	=10	=10	=10	=10	=10
!	!	!	!LO:TX:t=P:problem=mixed beam	!	!	!	!	!	!	!	!	!	!	!	!	!	!	!	!
8G\L	.	.	16aG/LL	.	8a/L	.	8cc\L	.	2.ryy	2.ryy	2.ryy	.	.	.	.	2.g/	.	2.b\	.
.	.	.	16g\	.	.	.	.	.	.	.	.	.	.	.	.	.	.	.	.
8G\	.	.	16f#\	.	8g/J	.	8b\J	.	.	.	.	.	.	.	.	.	.	.	.
.	.	.	16g\JJ	.	.	.	.	.	.	.	.	.	.	.	.	.	.	.	.
*	*	*	*	*	*custos:e	*	*	*	*	*	*	*	*	*	*	*	*	*	*
8G\	.	.	16a\LL	.	8g/L	.	2b\	.	.	.	.	.	.	.	.	.	.	.	.
.	.	.	16g\	.	.	.	.	.	.	.	.	.	.	.	.	.	.	.	.
8G\	.	.	16f#\	.	8g/	.	.	.	.	.	.	.	.	.	.	.	.	.	.
.	.	.	16g\JJ	.	.	.	.	.	.	.	.	.	.	.	.	.	.	.	.
8G\	.	.	16d\LL	.	8g/	.	.	.	.	.	.	.	.	.	.	.	.	.	.
.	.	.	16B\	.	.	.	.	.	.	.	.	.	.	.	.	.	.	.	.
8G\J	.	.	16A\	.	8g/J	.	.	.	.	.	.	.	.	.	.	.	.	.	.
.	.	.	16G\JJ	.	.	.	.	.	.	.	.	.	.	.	.	.	.	.	.
*Xtremolo	*	*	*	*	*Xtremolo	*	*	*	*	*	*	*	*	*	*	*	*	*	*
=11	=11	=11	=11	=11	=11	=11	=11	=11	=11	=11	=11	=11	=11	=11	=11	=11	=11	=11	=11
!	!	!LO:DY:a:t=for&colon;	!	!LO:DY:a:t=for&colon;	!LO:LB:g=original	!	!	!LO:DY:a:t=for&colon;:rj	!	!	!	!	!	!	!	!	!LO:DY:a:t=for&colon;	!	!LO:DY:a:t=for&colon;
4C/	.	f	4c/	f	4e/	.	16a/LL	f	2.ryy	2.ryy	2.ryy	.	.	2.r	2.r	4e/	f	4a/	f
.	.	.	.	.	.	.	16cc/	.	.	.	.	.	.	.	.	.	.	.	.
.	.	.	.	.	.	.	16ee/	.	.	.	.	.	.	.	.	.	.	.	.
.	.	.	.	.	.	.	16dd/JJ	.	.	.	.	.	.	.	.	.	.	.	.
4r	.	.	4r	.	4r	.	16cc/LL	.	.	.	.	.	.	.	.	4r	.	4r	.
.	.	.	.	.	.	.	16dd/	.	.	.	.	.	.	.	.	.	.	.	.
.	.	.	.	.	.	.	16cc/	.	.	.	.	.	.	.	.	.	.	.	.
.	.	.	.	.	.	.	16b/JJ	.	.	.	.	.	.	.	.	.	.	.	.
!LO:LB:g=original	!	!	!	!	!	!	!	!	!	!	!	!	!	!	!	!	!	!	!
4C#X/	.	.	4A/	.	4e/	.	16a/LL	.	.	.	.	.	.	.	.	4e/	.	8a/L	.
.	.	.	.	.	.	.	16b/	.	.	.	.	.	.	.	.	.	.	.	.
.	.	.	.	.	.	.	16a/	.	.	.	.	.	.	.	.	.	.	8g/J	.
.	.	.	.	.	.	.	16g/JJ	.	.	.	.	.	.	.	.	.	.	.	.
=12	=12	=12	=12	=12	=12	=12	=12	=12	=12	=12	=12	=12	=12	=12	=12	=12	=12	=12	=12
!LO:TX:t=P:problem=mixed beam	!	!	!	!	!	!	!	!	!	!	!	!	!	!	!	!	!	!	!
8D/L	.	.	8d\L	.	4e/	.	8g/L	.	2.ryy	2.ryy	2.ryy	.	.	8dd/L	8dd/L	4e/	.	4g/	.
16d\L	.	.	16dd\L	.	.	.	8f#/J	.	.	.	.	.	.	16dd/L	16dd/L	.	.	.	.
16c#X\JJ	.	.	16cc#X\JJ	.	.	.	.	.	.	.	.	.	.	16dd/JJ	16dd/JJ	.	.	.	.
*	*	*	*	*	*	*	*	*	*	*	*	*	*	*tremolo	*tremolo	*	*	*	*
8d\L	.	.	8dd\L	.	4d/	.	4f#/	.	.	.	.	.	.	8dd/L	8dd/L	4d/	.	4f#/	.
8A\	.	.	8a\	.	.	.	.	.	.	.	.	.	.	8dd/	8dd/	.	.	.	.
8F#X\	.	.	8f#\	.	4r	.	4r	.	.	.	.	.	.	8dd/	8dd/	4f#/	.	4r	.
8A\J	.	.	8a\J	.	.	.	.	.	.	.	.	.	.	8dd/J	8dd/J	.	.	.	.
*	*	*	*	*	*	*	*	*	*	*	*	*	*	*Xtremolo	*Xtremolo	*	*	*	*
=13	=13	=13	=13	=13	=13	=13	=13	=13	=13	=13	=13	=13	=13	=13	=13	=13	=13	=13	=13
!	!	!	!	!	!	!	!	!	!	!	!	!	!	!	!	!	!	!LO:TX:t=P:problem=7 zamiast 8	!
!	!	!	!	!	!	!	!	!	!	!	!	!	!	!	!	!	!	!LO:TX:a:t=7	!
4D\	.	.	4d\	.	2.r	.	2.r	.	2.ryy	2.ryy	2.ryy	0.r	.	4dd/	4dd/	4f#/	.	0.r	.
4r	.	.	4r	.	.	.	.	.	.	.	.	.	.	4r	4r	4r	.	.	.
4r	.	.	4r	.	.	.	.	.	.	.	.	.	.	4r	4r	4r	.	.	.
=14	=14	=14	=14	=14	=14	=14	=14	=14	=14	=14	=14	=14	=14	=14	=14	=14	=14	=14	=14
!	!	!	!	!	!	!	!	!	!	!	!	!	!	!	!	!LO:LB:g=original	!	!	!
!	!	!LO:DY:a:t=p&colon;:rj	!	!LO:DY:a:t=pia&colon;	!	!LO:DY:a:t=pia&colon;	!	!LO:DY:a:t=p&colon;:rj	!	!	!	!	!	!	!	!LO:TX:a:t=7.	!	!	!
4F#\	.	p	4A/	p	4d/	p	4cc\	p	2.ryy	2.ryy	2.ryy	.	.	0.r	0.r	0.r	.	.	.
4r	.	.	4r	.	4r	.	4r	.	.	.	.	.	.	.	.	.	.	.	.
4F#\	.	.	4A/	.	4d/	.	4cc\	.	.	.	.	.	.	.	.	.	.	.	.
=15	=15	=15	=15	=15	=15	=15	=15	=15	=15	=15	=15	=15	=15	=15	=15	=15	=15	=15	=15
4G\	.	.	4G/	.	4d/	.	4b\	.	2.ryy	2.ryy	2.ryy	.	.	.	.	.	.	.	.
4r	.	.	4r	.	4r	.	4r	.	.	.	.	.	.	.	.	.	.	.	.
4G\	.	.	4G/	.	4d/	.	4b\	.	.	.	.	.	.	.	.	.	.	.	.
=16	=16	=16	=16	=16	=16	=16	=16	=16	=16	=16	=16	=16	=16	=16	=16	=16	=16	=16	=16
4F#\	.	.	4A/	.	4d/	.	4cc\	.	2.ryy	2.ryy	2.ryy	.	.	.	.	.	.	.	.
4r	.	.	4r	.	4r	.	4r	.	.	.	.	.	.	.	.	.	.	.	.
4F#\	.	.	4A/	.	4d/	.	4cc\	.	.	.	.	.	.	.	.	.	.	.	.
=17	=17	=17	=17	=17	=17	=17	=17	=17	=17	=17	=17	=17	=17	=17	=17	=17	=17	=17	=17
4G\	.	.	4G/	.	4d/	.	4b\	.	2.ryy	2.ryy	2.ryy	0.r	.	.	.	.	.	1.r	.
4r	.	.	4r	.	4r	.	4r	.	.	.	.	.	.	.	.	.	.	.	.
4B\	.	.	4B/	.	4d/	.	4g/	.	.	.	.	.	.	.	.	.	.	.	.
=18	=18	=18	=18	=18	=18	=18	=18	=18	=18	=18	=18	=18	=18	=18	=18	=18	=18	=18	=18
!	!	!	!LO:LB:g=original	!	!	!	!	!	!	!	!	!	!	!	!	!	!	!	!
4c\	.	.	4c\	.	4e/	.	4g/	.	2.ryy	2.ryy	2.ryy	.	.	2.r	1.r	1.r	.	.	.
4d\	.	.	4d\	.	4d/	.	4g/	.	.	.	.	.	.	.	.	.	.	.	.
4D/	.	.	4d\	.	4c/	.	4f#/	.	.	.	.	.	.	.	.	.	.	.	.
=19	=19	=19	=19	=19	=19	=19	=19	=19	=19	=19	=19	=19	=19	=19	=19	=19	=19	=19	=19
!	!	!	!	!	!	!	!LO:LB:g=original	!	!	!	!	!	!	!	!	!	!	!	!
4G\	.	.	4d\	.	4B/	.	4g/	.	2.ryy	2.ryy	2.ryy	.	.	2.ryy	.	.	.	2.r	.
4r	.	.	4r	.	4r	.	4r	.	.	.	.	.	.	.	.	.	.	.	.
4B\	.	.	4B/	.	4d/	.	4g/	.	.	.	.	.	.	.	.	.	.	.	.
=20	=20	=20	=20	=20	=20	=20	=20	=20	=20	=20	=20	=20	=20	=20	=20	=20	=20	=20	=20
4c\	.	.	4c\	.	4c/	.	4g/	.	2.ryy	2.ryy	2.ryy	.	.	2.ryy	2.r	2.r	.	2.ryy	.
4d\	.	.	4d\	.	4d/	.	4g/	.	.	.	.	.	.	.	.	.	.	.	.
4D/	.	.	4d\	.	4c/	.	4f#/	.	.	.	.	.	.	.	.	.	.	.	.
=21	=21	=21	=21	=21	=21	=21	=21	=21	=21	=21	=21	=21	=21	=21	=21	=21	=21	=21	=21
*	*	*	*tremolo	*	*	*	*	*	*	*	*	*	*	*	*	*	*	*	*
!	!	!LO:DY:a:t=for.	!	!LO:DY:a:t=for&colon;	!	!LO:DY:a:t=for&colon;	!	!LO:DY:a:t=f&colon;:rj	!	!	!	!	!	!	!	!	!	!LO:LB:g=original	!
8G\L	.	f	8g\L	f	16dd\LL	f	4g/	f	2.ryy	2.ryy	2.ryy	0.r	.	8g/L	8gg/L	2.g\	.	2.dd\	.
.	.	.	.	.	16dd\	.	.	.	.	.	.	.	.	.	.	.	.	.	.
8B\J	.	.	8g\	.	16dd\	.	.	.	.	.	.	.	.	16g/L	16gg/L	.	.	.	.
.	.	.	.	.	16dd\JJ	.	.	.	.	.	.	.	.	16g/JJ	16gg/JJ	.	.	.	.
*tremolo	*	*	*	*	*tremolo	*	*	*	*	*	*	*	*	*tremolo	*tremolo	*	*	*	*
8B\L	.	.	8g\	.	16dd\LL	.	16gg\LL	.	.	.	.	.	.	8g/L	8gg\L	.	.	.	.
.	.	.	.	.	16dd\	.	16ff#\	.	.	.	.	.	.	.	.	.	.	.	.
8B\	.	.	8g\	.	16dd\	.	16gg\	.	.	.	.	.	.	8g/	8gg\	.	.	.	.
.	.	.	.	.	16dd\	.	16aa\JJ	.	.	.	.	.	.	.	.	.	.	.	.
8B\	.	.	8g\	.	16dd\	.	8gg\L	.	.	.	.	.	.	8g/	8gg\	.	.	.	.
.	.	.	.	.	16dd\	.	.	.	.	.	.	.	.	.	.	.	.	.	.
8B\J	.	.	8g\J	.	16dd\	.	8gg\J	.	.	.	.	.	.	8g/J	8gg\J	.	.	.	.
.	.	.	.	.	16dd\JJ	.	.	.	.	.	.	.	.	.	.	.	.	.	.
*	*	*	*	*	*	*	*	*	*	*	*	*	*	*	*Xtremolo	*	*	*	*
=22	=22	=22	=22	=22	=22	=22	=22	=22	=22	=22	=22	=22	=22	=22	=22	=22	=22	=22	=22
!LO:LB:g=original	!	!	!	!	!	!	!	!	!	!	!	!	!	!	!	!	!	!	!
8c\L	.	.	8g\L	.	16ee\LL	.	4ee\	.	2.ryy	2.ryy	2.ryy	.	.	8g/L	8gg\L	2.g\	.	2.ee\	.
.	.	.	.	.	16ee\	.	.	.	.	.	.	.	.	.	.	.	.	.	.
8c\	.	.	8g\	.	16ee\	.	.	.	.	.	.	.	.	8g/	16gg\L	.	.	.	.
.	.	.	.	.	16ee\	.	.	.	.	.	.	.	.	.	16gg\JJ	.	.	.	.
*	*	*	*	*	*	*	*	*	*	*	*	*	*	*	*tremolo	*	*	*	*
8c\	.	.	8g\	.	16ee\	.	16gg\LL	.	.	.	.	.	.	8g/	8gg\L	.	.	.	.
.	.	.	.	.	16ee\	.	16ff#\	.	.	.	.	.	.	.	.	.	.	.	.
8c\	.	.	8g\	.	16ee\	.	16gg\	.	.	.	.	.	.	8g/	8gg\	.	.	.	.
.	.	.	.	.	16ee\	.	16aa\JJ	.	.	.	.	.	.	.	.	.	.	.	.
8c\	.	.	8g\	.	16ee\	.	8gg\L	.	.	.	.	.	.	8g/	8gg\	.	.	.	.
.	.	.	.	.	16ee\	.	.	.	.	.	.	.	.	.	.	.	.	.	.
8c\J	.	.	8g\J	.	16ee\	.	8gg\J	.	.	.	.	.	.	8g/J	8gg\J	.	.	.	.
.	.	.	.	.	16ee\JJ	.	.	.	.	.	.	.	.	.	.	.	.	.	.
*	*	*	*	*	*	*	*	*	*	*	*	*	*	*Xtremolo	*Xtremolo	*	*	*	*
=23	=23	=23	=23	=23	=23	=23	=23	=23	=23	=23	=23	=23	=23	=23	=23	=23	=23	=23	=23
8B\L	.	.	8g\L	.	16dd\LL	.	4dd\	.	2.ryy	2.ryy	2.ryy	.	.	8g/L	8gg\L	2.g/	.	2.dd\	.
.	.	.	.	.	16dd\	.	.	.	.	.	.	.	.	.	.	.	.	.	.
8B\	.	.	8g\	.	16dd\	.	.	.	.	.	.	.	.	16g/L	16gg\L	.	.	.	.
.	.	.	.	.	16dd\	.	.	.	.	.	.	.	.	16g/JJ	16gg\JJ	.	.	.	.
*	*	*	*	*	*	*	*	*	*	*	*	*	*	*tremolo	*tremolo	*	*	*	*
8B\	.	.	8g\	.	16dd\	.	16gg\LL	.	.	.	.	.	.	8g/L	8gg\L	.	.	.	.
.	.	.	.	.	16dd\	.	16ff#\	.	.	.	.	.	.	.	.	.	.	.	.
8B\	.	.	8g\	.	16dd\	.	16gg\	.	.	.	.	.	.	8g/	8gg\	.	.	.	.
.	.	.	.	.	16dd\	.	16aa\JJ	.	.	.	.	.	.	.	.	.	.	.	.
8B\	.	.	8g\	.	16dd\	.	8gg\L	.	.	.	.	.	.	8g/	8gg\	.	.	.	.
.	.	.	.	.	16dd\	.	.	.	.	.	.	.	.	.	.	.	.	.	.
8B\J	.	.	8g\J	.	16dd\	.	8gg\J	.	.	.	.	.	.	8g/J	8gg\J	.	.	.	.
.	.	.	.	.	16dd\JJ	.	.	.	.	.	.	.	.	.	.	.	.	.	.
*Xtremolo	*	*	*Xtremolo	*	*Xtremolo	*	*	*	*	*	*	*	*	*Xtremolo	*Xtremolo	*	*	*	*
=24	=24	=24	=24	=24	=24	=24	=24	=24	=24	=24	=24	=24	=24	=24	=24	=24	=24	=24	=24
!LO:TX:t=P:problem=mixed beam	!	!	!	!	!	!	!	!	!	!	!	!	!	!	!LO:LB:g=original	!	!	!	!
.	.	.	.	.	.	.	8qff#/	.	.	.	.	.	.	.	.	.	.	.	.
8c\L	.	.	4g\	.	8ee\L	.	8ee\L	.	2.ryy	2.ryy	2.ryy	.	.	4gg\	4gg\	4g/	.	4ee\	.
8c\	.	.	.	.	16dd\L	.	16dd\L	.	.	.	.	.	.	.	.	.	.	.	.
.	.	.	.	.	16cc\JJ	.	16cc\JJ	.	.	.	.	.	.	.	.	.	.	.	.
!	!	!	!	!	!LO:LB:g=original	!	!	!	!	!	!	!	!	!	!	!	!	!	!
8d\	.	.	4g\	.	4b\	.	4b/	.	.	.	.	.	.	4gg\	4bb\	4b/	.	4gg\	.
8d\	.	.	.	.	.	.	.	.	.	.	.	.	.	.	.	.	.	.	.
!	!	!	!	!	!	!	!	!	!	!	!	!	!	!LO:LB:g=original	!	!	!	!	!
8D/	.	.	4f#\	.	4a/	.	4a/	.	.	.	.	.	.	4dd/	4aa\	4a/	.	4ff#\	.
8D/J	.	.	.	.	.	.	.	.	.	.	.	.	.	.	.	.	.	.	.
=25	=25	=25	=25	=25	=25	=25	=25	=25	=25	=25	=25	=25	=25	=25	=25	=25	=25	=25	=25
4G\	.	.	4g\	.	4g/	.	4g/	.	2.ryy	2.ryy	2.ryy	1.r	.	4b/	4gg\	4b/	.	4gg\	.
4D\	.	.	4d\	.	4G/ 4d 4b	.	4d/ 4b 4gg	.	.	.	.	.	.	4gg\	4bb\	4b/	.	4gg\	.
4BB/	.	.	4d\	.	4G/ 4d 4b	.	4d/ 4b 4gg	.	.	.	.	.	.	4gg\	4bb\	4b/	.	4gg\	.
=26	=26	=26	=26	=26	=26	=26	=26	=26	=26	=26	=26	=26	=26	=26	=26	=26	=26	=26	=26
4GG/	.	.	4d\	.	4G/ 4d 4b	.	4d/ 4b 4gg	.	2.ryy	2.ryy	2.ryy	.	.	4gg\	4bb\	4b/	.	4gg\	.
4G\	.	.	4r	.	4r	.	4r	.	.	.	.	.	.	4r	4r	4r	.	4r	.
!	!	!	!LO:TX:t=P:problem=podwójna fermata na kresce taktowej	!	!LO:TX:t=P:problem=podwójna fermata na kresce taktowej	!	!	!	!	!	!	!	!	!	!	!	!	!	!
4r	.	.	4r	.	4r	.	4r	.	.	.	.	.	.	4r	4r	4r	.	4r	.
=27	=27	=27	=27||;;	=27||	=27||;;	=27||	=27	=27	=27	=27	=27	=27	=27	=27||;;	=27||;;	=27||	=27	=27	=27
*	*	*	*tremolo	*	*tremolo	*	*	*	*	*	*	*	*	*	*	*	*	*	*
!	!	!	!	!	!	!	!	!	!	!	!	!	!	!	!	!	!	!	!
!	!	!LO:DY:a:t=p&colon;:rj	!	!LO:DY:a:t=pia&colon;	!LO:LB:g=original	!LO:DY:a:t=pia&colon;	!	!LO:DY:a:t=p&colon;	!	!	!	!LO:TX:a:t=Solo.	!	!LO:TX:a:t=25	!	!	!	!	!
8G\L	.	p	8B/L	p	8d/L	p	2g/	p	2.ryy	2.ryy	2.ryy	2g\	Quo-	0.r	0.r	0.r	.	0.r	.
8G\	.	.	8B/	.	8d/	.	.	.	.	.	.	.	.	.	.	.	.	.	.
8B\	.	.	8B/	.	8d/	.	.	.	.	.	.	.	.	.	.	.	.	.	.
8B\	.	.	8B/	.	8d/	.	.	.	.	.	.	.	.	.	.	.	.	.	.
8G\	.	.	8B/	.	8d/	.	8b\L	.	.	.	.	8b\L	-ni-	.	.	.	.	.	.
8G\J	.	.	8B/J	.	8d/J	.	8dd\J	.	.	.	.	8dd\J	.	.	.	.	.	.	.
*	*	*	*Xtremolo	*	*Xtremolo	*	*	*	*	*	*	*	*	*	*	*	*	*	*
=28	=28	=28	=28	=28	=28	=28	=28	=28	=28	=28	=28	=28	=28	=28	=28	=28	=28	=28	=28
.	.	.	.	.	.	.	.	.	.	.	.	8qqdd/	.	.	.	.	.	.	.
8A\L	.	.	8e\L	.	8a/L	.	8dd\L	.	2.ryy	2.ryy	2.ryy	2cc\	-am	.	.	.	.	.	.
8A\	.	.	8e\	.	8a/	.	8dd\	.	.	.	.	.	.	.	.	.	.	.	.
8F#\	.	.	8d\	.	8a/	.	8cc\	.	.	.	.	.	.	.	.	.	.	.	.
8F#\	.	.	8d\	.	8a/	.	8cc\	.	.	.	.	.	.	.	.	.	.	.	.
8G\	.	.	8d\	.	8g/	.	8b\	.	.	.	.	4b\	tu	.	.	.	.	.	.
8G\J	.	.	8d\J	.	8g/J	.	8b\J	.	.	.	.	.	.	.	.	.	.	.	.
=29	=29	=29	=29	=29	=29	=29	=29	=29	=29	=29	=29	=29	=29	=29	=29	=29	=29	=29	=29
!	!	!	!LO:PB:g=original	!	!	!	!LO:LB:g=original	!	!	!	!	!	!	!	!	!	!	!	!
8C/L	.	.	4e\	.	4e/	.	4a/	.	2.ryy	2.ryy	2.ryy	4a\	so-	.	.	.	.	.	.
8C/	.	.	.	.	.	.	.	.	.	.	.	.	.	.	.	.	.	.	.
8AA/	.	.	4r	.	8e/L	.	8cc/L	.	.	.	.	8cc\L	.	.	.	.	.	.	.
8AA/	.	.	.	.	8c/	.	8a/	.	.	.	.	8a\J	.	.	.	.	.	.	.
8D/	.	.	4d\	.	8B/	.	8g/	.	.	.	.	8g/L	-lus	.	.	.	.	.	.
8D/J	.	.	.	.	8A/J	.	8f#/J	.	.	.	.	8f#/J	.	.	.	.	.	.	.
=30	=30	=30	=30	=30	=30	=30	=30	=30	=30	=30	=30	=30	=30	=30	=30	=30	=30	=30	=30
4G\	.	.	4d\	.	4B/	.	4g/	.	2.ryy	2.ryy	2.ryy	4g/	san-	.	.	.	.	.	.
!	!	!	!	!	!LO:SIC:v:s=8B	!	!	!	!	!	!	!	!	!	!	!	!	!	!
8B\L	.	.	8B/L	.	8c/L	.	4d/	.	.	.	.	4d/	-ctus	.	.	.	.	.	.
8c\	.	.	8c/	.	8e/	.	.	.	.	.	.	.	.	.	.	.	.	.	.
8B\	.	.	8B/	.	8d/	.	4r	.	.	.	.	4r	.	.	.	.	.	.	.
8A\J	.	.	8A/J	.	8c/J	.	.	.	.	.	.	.	.	.	.	.	.	.	.
=31	=31	=31	=31	=31	=31	=31	=31	=31	=31	=31	=31	=31	=31	=31	=31	=31	=31	=31	=31
*	*	*	*	*	*tremolo	*	*	*	*	*	*	*	*	*	*	*	*	*	*
8G\L	.	.	8G/L	.	8d/L	.	2g/	.	2.ryy	2.ryy	2.ryy	2g\	Quo-	0.r	0.r	0.r	.	0.r	.
8G\	.	.	8B/J	.	8d/	.	.	.	.	.	.	.	.	.	.	.	.	.	.
*	*	*	*tremolo	*	*	*	*	*	*	*	*	*	*	*	*	*	*	*	*
8B\	.	.	8B/L	.	8d/	.	.	.	.	.	.	.	.	.	.	.	.	.	.
8B\	.	.	8B/	.	8d/	.	.	.	.	.	.	.	.	.	.	.	.	.	.
8G\	.	.	8B/	.	8d/	.	8b/L	.	.	.	.	8b\L	-ni-	.	.	.	.	.	.
8G\J	.	.	8B/J	.	8d/J	.	8dd/J	.	.	.	.	8dd\J	.	.	.	.	.	.	.
*	*	*	*Xtremolo	*	*Xtremolo	*	*	*	*	*	*	*	*	*	*	*	*	*	*
=32	=32	=32	=32	=32	=32	=32	=32	=32	=32	=32	=32	=32	=32	=32	=32	=32	=32	=32	=32
.	.	.	.	.	.	.	.	.	.	.	.	8qqdd/	.	.	.	.	.	.	.
!LO:LB:g=original	!	!	!	!	!	!	!	!	!	!	!	!	!	!	!	!	!	!	!
8A\L	.	.	8e\L	.	8g/L	.	8dd\L	.	2.ryy	2.ryy	2.ryy	2cc\	-am	.	.	.	.	.	.
8A\	.	.	8e\	.	8g/	.	8dd\	.	.	.	.	.	.	.	.	.	.	.	.
!	!	!	!	!	!LO:TX:a:t=a	!	!	!	!	!	!	!	!	!	!	!	!	!	!
8F#\	.	.	8d\	.	8a/	.	8cc\	.	.	.	.	.	.	.	.	.	.	.	.
!	!	!	!	!	!LO:TX:a:t=a	!	!	!	!	!	!	!	!	!	!	!	!	!	!
8F#\	.	.	8d\	.	8a/	.	8cc\	.	.	.	.	.	.	.	.	.	.	.	.
8G\	.	.	8d\	.	8g/	.	8b\	.	.	.	.	4b\	tu	.	.	.	.	.	.
8G\J	.	.	8d\J	.	8g/J	.	8b\J	.	.	.	.	.	.	.	.	.	.	.	.
=33	=33	=33	=33	=33	=33	=33	=33	=33	=33	=33	=33	=33	=33	=33	=33	=33	=33	=33	=33
*tremolo	*	*	*tremolo	*	*tremolo	*	*	*	*	*	*	*	*	*	*	*	*	*	*
8C/L	.	.	8c\L	.	8e/L	.	8a\L	.	2.ryy	2.ryy	2.ryy	(4a\	so-	.	.	.	.	.	.
8C/	.	.	8c\	.	8e/	.	8a\	.	.	.	.	.	.	.	.	.	.	.	.
8C/	.	.	8c\	.	8e/	.	8ee\	.	.	.	.	4ee\)	.	.	.	.	.	.	.
8C/	.	.	8c\	.	8e/	.	8ee\	.	.	.	.	.	.	.	.	.	.	.	.
8C/	.	.	8c\	.	8e/	.	8cc\	.	.	.	.	4cc\	-lus	.	.	.	.	.	.
8C/J	.	.	8c\J	.	8e/J	.	8cc\J	.	.	.	.	.	.	.	.	.	.	.	.
=34	=34	=34	=34	=34	=34	=34	=34	=34	=34	=34	=34	=34	=34	=34	=34	=34	=34	=34	=34
!LO:SIC:v:s=2C#	!	!	!	!	!	!	!	!	!	!	!	!	!	!	!	!	!	!	!
.	.	.	.	.	.	.	8qqb/	.	.	.	.	8qqb/	.	.	.	.	.	.	.
8C/L	.	.	8c#X\L	.	8e/L	.	2a/	.	2.ryy	2.ryy	2.ryy	2a\	so-	.	.	.	.	.	.
8C/	.	.	8c#X\	.	8e/	.	.	.	.	.	.	.	.	.	.	.	.	.	.
8C/	.	.	8c#X\	.	8e/	.	.	.	.	.	.	.	.	.	.	.	.	.	.
8C/J	.	.	8c#X\	.	8e/	.	.	.	.	.	.	.	.	.	.	.	.	.	.
*Xtremolo	*	*	*	*	*	*	*tremolo	*	*	*	*	*	*	*	*	*	*	*	*
8C#X/L	.	.	8c#X\	.	8e/	.	8g/L	.	.	.	.	4g\	-lus	.	.	.	.	.	.
8C#/J	.	.	8c#X\J	.	8e/J	.	8g/J	.	.	.	.	.	.	.	.	.	.	.	.
*	*	*	*	*	*Xtremolo	*	*Xtremolo	*	*	*	*	*	*	*	*	*	*	*	*
=35	=35	=35	=35	=35	=35	=35	=35	=35	=35	=35	=35	=35	=35	=35	=35	=35	=35	=35	=35
!	!	!	!	!	!	!	!	!	!	!	!	!LO:LB:g=original	!	!	!	!	!	!	!
8D\L	.	.	8A/L	.	8e/L	.	8g/L	.	2.ryy	2.ryy	2.ryy	4g/	san-	0.r	0.r	0.r	.	0.r	.
8D\	.	.	8A/	.	8e/	.	8g/	.	.	.	.	.	.	.	.	.	.	.	.
8D\	.	.	8A/	.	8d/	.	8f#/	.	.	.	.	4f#/	-ctus	.	.	.	.	.	.
8D\	.	.	8A/	.	8d/	.	8f#/	.	.	.	.	.	.	.	.	.	.	.	.
8E\	.	.	8A/	.	8c#X/	.	8g/	.	.	.	.	4r	.	.	.	.	.	.	.
8E\J	.	.	8A/J	.	8c#/J	.	8g/J	.	.	.	.	.	.	.	.	.	.	.	.
=36	=36	=36	=36	=36	=36	=36	=36	=36	=36	=36	=36	=36	=36	=36	=36	=36	=36	=36	=36
*tremolo	*	*	*Xtremolo	*	*	*	*	*	*	*	*	*	*	*	*	*	*	*	*
8F#\L	.	.	8D/	.	8d/L	.	8a/L	.	2.ryy	2.ryy	2.ryy	4a\	tu	.	.	.	.	.	.
8F#\	.	.	8r	.	8d/J	.	8a/	.	.	.	.	.	.	.	.	.	.	.	.
*	*	*	*	*	*tremolo	*	*	*	*	*	*	*	*	*	*	*	*	*	*
8F#\	.	.	4r	.	8d/L	.	8a/	.	.	.	.	4a\	so-	.	.	.	.	.	.
8F#\	.	.	.	.	8d/	.	8a/	.	.	.	.	.	.	.	.	.	.	.	.
8F#\	.	.	4r	.	8d/	.	8a/	.	.	.	.	4a\	-lus	.	.	.	.	.	.
8F#\J	.	.	.	.	8d/J	.	8a/J	.	.	.	.	.	.	.	.	.	.	.	.
=37	=37	=37	=37	=37	=37	=37	=37	=37	=37	=37	=37	=37	=37	=37	=37	=37	=37	=37	=37
!	!	!	!LO:TX:t=P:problem=brak 1r	!	!LO:LB:g=original	!	!	!	!	!	!	!	!	!	!	!	!	!	!
8G\L	.	.	0.r	.	8d/L	.	8a#X/L	.	2.ryy	2.ryy	2.ryy	8a#X\L	san-	.	.	.	.	.	.
8G\	.	.	.	.	8d/	.	8b/	.	.	.	.	8b\J	.	.	.	.	.	.	.
8G\	.	.	.	.	8d/	.	8b/	.	.	.	.	2b\	-ctus	.	.	.	.	.	.
8G\	.	.	.	.	8d/	.	8b/	.	.	.	.	.	.	.	.	.	.	.	.
8G\	.	.	.	.	8d/	.	8b/	.	.	.	.	.	.	.	.	.	.	.	.
*	*	*	*	*	*	*	*custos:cc#	*	*	*	*	*	*	*	*	*	*	*	*
8G\J	.	.	.	.	8d/J	.	8b/J	.	.	.	.	.	.	.	.	.	.	.	.
=38	=38	=38	=38	=38	=38	=38	=38	=38	=38	=38	=38	=38	=38	=38	=38	=38	=38	=38	=38
!	!	!	!	!	!	!	!LO:LB:g=original	!	!	!	!	!	!	!	!	!	!	!	!
8A\L	.	.	.	.	8g/L	.	8cc#X\L	.	2.ryy	2.ryy	2.ryy	4cc#X\	tu	.	.	.	.	.	.
8A\	.	.	.	.	8g/	.	8cc#\	.	.	.	.	.	.	.	.	.	.	.	.
8A\	.	.	.	.	8g/	.	8cc#\	.	.	.	.	4cc#\	so-	.	.	.	.	.	.
8A\	.	.	.	.	8g/	.	8cc#\	.	.	.	.	.	.	.	.	.	.	.	.
8A\	.	.	.	.	8g/	.	8cc#\	.	.	.	.	4cc#\	-lus	.	.	.	.	.	.
8A\J	.	.	.	.	8g/J	.	8cc#\J	.	.	.	.	.	.	.	.	.	.	.	.
=39	=39	=39	=39	=39	=39	=39	=39	=39	=39	=39	=39	=39	=39	=39	=39	=39	=39	=39	=39
!	!	!	!	!	!	!	!LO:SIC:v:s=8cc#	!	!	!	!	!LO:SIC:v:s=8cc#	!	!	!	!	!	!	!
8B\L	.	.	.	.	8f#/L	.	8cc\L	.	2.ryy	2.ryy	2.ryy	8cc\L	san-	0.r	0.r	0.r	.	0.r	.
8B\	.	.	.	.	8f#/	.	8dd\	.	.	.	.	8dd\J	.	.	.	.	.	.	.
8B\	.	.	.	.	8f#/	.	8dd\	.	.	.	.	2dd\	-ctus	.	.	.	.	.	.
8B\	.	.	.	.	8f#/	.	8dd\	.	.	.	.	.	.	.	.	.	.	.	.
8B\	.	.	.	.	8f#/	.	8dd\	.	.	.	.	.	.	.	.	.	.	.	.
8B\J	.	.	.	.	8f#/J	.	8dd\J	.	.	.	.	.	.	.	.	.	.	.	.
*Xtremolo	*	*	*	*	*Xtremolo	*	*	*	*	*	*	*	*	*	*	*	*	*	*
=40	=40	=40	=40	=40	=40	=40	=40	=40	=40	=40	=40	=40	=40	=40	=40	=40	=40	=40	=40
!LO:TX:t=P:problem=mixed beam	!	!	!	!	!	!	!	!	!	!	!	!	!	!	!	!	!	!	!
8c#X\L	.	.	.	.	8a/L	.	8ee\L	.	2.ryy	2.ryy	2.ryy	4ee\	tu	.	.	.	.	.	.
8C#X/	.	.	.	.	8a/	.	8ee\	.	.	.	.	.	.	.	.	.	.	.	.
*	*	*	*	*	*	*	*	*	*	*	*	*Xtuplet	*	*	*	*	*	*	*
8C#/	.	.	.	.	8a/	.	8ee\	.	.	.	.	12ee\L	so[[lu]]-	.	.	.	.	.	.
.	.	.	.	.	.	.	.	.	.	.	.	12dd\	.	.	.	.	.	.	.
8C#/	.	.	.	.	8a/	.	8ee\	.	.	.	.	.	.	.	.	.	.	.	.
.	.	.	.	.	.	.	.	.	.	.	.	12cc#X\J	.	.	.	.	.	.	.
8C#/	.	.	.	.	8a/	.	8ee\	.	.	.	.	12b\L	.	.	.	.	.	.	.
.	.	.	.	.	.	.	.	.	.	.	.	12a\	.	.	.	.	.	.	.
8C#/J	.	.	.	.	8a/J	.	8ee\J	.	.	.	.	.	.	.	.	.	.	.	.
.	.	.	.	.	.	.	.	.	.	.	.	12g\J	.	.	.	.	.	.	.
=41	=41	=41	=41	=41	=41	=41	=41	=41	=41	=41	=41	=41	=41	=41	=41	=41	=41	=41	=41
8D\L	.	.	1.r	.	8a/L	.	4ff#\	.	2.ryy	2.ryy	2.ryy	4f#/	-lus	.	.	.	.	.	.
8D\	.	.	.	.	8a/	.	.	.	.	.	.	.	.	.	.	.	.	.	.
8F#\	.	.	.	.	8a/	.	4r	.	.	.	.	4r	.	.	.	.	.	.	.
8F#\	.	.	.	.	8a/	.	.	.	.	.	.	.	.	.	.	.	.	.	.
8D\	.	.	.	.	8f#/	.	4aa\	.	.	.	.	4aa\	al-	.	.	.	.	.	.
8D\J	.	.	.	.	8f#/J	.	.	.	.	.	.	.	.	.	.	.	.	.	.
=42	=42	=42	=42	=42	=42	=42	=42	=42	=42	=42	=42	=42	=42	=42	=42	=42	=42	=42	=42
4G\	.	.	.	.	4b/	.	4aa\	.	2.ryy	2.ryy	2.ryy	4aa\	-tiſ-	.	.	.	.	.	.
4r	.	.	.	.	4r	.	8gg\L	.	.	.	.	8gg\L	-si-	.	.	.	.	.	.
.	.	.	.	.	.	.	8ff#\	.	.	.	.	8ff#\J	.	.	.	.	.	.	.
4G#X\	.	.	.	.	4b/	.	8ee\	.	.	.	.	8ee\L	.	.	.	.	.	.	.
.	.	.	.	.	.	.	8dd\J	.	.	.	.	8dd\J	.	.	.	.	.	.	.
=43	=43	=43	=43	=43	=43	=43	=43	=43	=43	=43	=43	=43	=43	=43	=43	=43	=43	=43	=43
*	*	*	*	*	*tremolo	*	*	*	*	*	*	*	*	*	*	*	*	*	*
.	.	.	.	.	.	.	8qqdd/	.	.	.	.	8qee/	.	.	.	.	.	.	.
!LO:LB:g=original	!	!	!	!	!	!	!	!	!	!	!	!	!	!	!	!	!	!	!
8A\L	.	.	2.ryy	.	8e/L	.	8cc#X\L	.	2.ryy	2.ryy	2.ryy	4cc#X\	-mus	0.r	0.r	0.r	.	0.r	.
8A\	.	.	.	.	8e/	.	8cc#\	.	.	.	.	.	.	.	.	.	.	.	.
!	!	!	!	!	!	!	!	!	!	!	!	!LO:LB:g=original	!	!	!	!	!	!	!
8G\	.	.	.	.	8e/	.	8cc#\	.	.	.	.	4r	.	.	.	.	.	.	.
8G\	.	.	.	.	8e/J	.	8cc#\	.	.	.	.	.	.	.	.	.	.	.	.
*	*	*	*	*	*Xtremolo	*	*	*	*	*	*	*	*	*	*	*	*	*	*
8F#\	.	.	.	.	8a/L	.	8dd\	.	.	.	.	4dd\	Je-	.	.	.	.	.	.
8F#\J	.	.	.	.	8a/J	.	8dd\J	.	.	.	.	.	.	.	.	.	.	.	.
=44	=44	=44	=44	=44	=44	=44	=44	=44	=44	=44	=44	=44	=44	=44	=44	=44	=44	=44	=44
*tremolo	*	*	*	*	*tremolo	*	*	*	*	*	*	*	*	*	*	*	*	*	*
!	!	!	!	!LO:DY:a:t=p&colon;	!	!	!	!	!	!	!	!	!	!	!	!	!	!	!
8G\L	.	.	8g\L	p	8d/L	.	8dd\L	.	2.ryy	2.ryy	2.ryy	[2.b\	.	.	.	.	.	.	.
8G\	.	.	16b\L	.	8d/	.	8dd\	.	.	.	.	.	.	.	.	.	.	.	.
.	.	.	16a\JJ	.	.	.	.	.	.	.	.	.	.	.	.	.	.	.	.
8G\	.	.	8g\L	.	8d/	.	8dd\	.	.	.	.	.	.	.	.	.	.	.	.
8G\	.	.	8d\	.	8d/	.	8dd\	.	.	.	.	.	.	.	.	.	.	.	.
8G\	.	.	8B\	.	8d/	.	8dd\	.	.	.	.	.	.	.	.	.	.	.	.
8G\J	.	.	8d\J	.	8d/J	.	8dd\J	.	.	.	.	.	.	.	.	.	.	.	.
*	*	*	*	*	*Xtremolo	*	*	*	*	*	*	*	*	*	*	*	*	*	*
=45	=45	=45	=45	=45	=45	=45	=45	=45	=45	=45	=45	=45	=45	=45	=45	=45	=45	=45	=45
!	!	!	!LO:TX:t=P:problem=mixed beam	!	!LO:TX:t=P:problem=mixed beam	!	!	!	!	!	!	!	!	!	!	!	!	!	!
8G\L	.	.	8G/L	.	8d/L	.	8dd\L	.	2.ryy	2.ryy	2.ryy	4b\]	.	.	.	.	.	.	.
8G\	.	.	8g\	.	8d/	.	8dd\	.	.	.	.	.	.	.	.	.	.	.	.
8G\	.	.	8g\	.	8d/	.	8gg\	.	.	.	.	4gg\	.	.	.	.	.	.	.
8G\	.	.	8g\	.	8d/	.	8gg\	.	.	.	.	.	.	.	.	.	.	.	.
8G\	.	.	8g\	.	8dd\	.	8ee\	.	.	.	.	4ee\	-sus	.	.	.	.	.	.
8G\J	.	.	8g\J	.	8dd\J	.	8ee\J	.	.	.	.	.	.	.	.	.	.	.	.
=46	=46	=46	=46	=46	=46	=46	=46	=46	=46	=46	=46	=46	=46	=46	=46	=46	=46	=46	=46
*	*	*	*tremolo	*	*	*	*	*	*	*	*	*	*	*	*	*	*	*	*
!	!	!	!	!	!	!	!LO:LB:g=original	!	!	!	!	!	!	!	!	!	!	!	!
8A\L	.	.	8a\L	.	8dd\L	.	8dd\L	.	2.ryy	2.ryy	2.ryy	8dd\L	Chri-	.	.	.	.	.	.
8A\	.	.	8a\	.	8dd\	.	8ee\	.	.	.	.	8ee\J	.	.	.	.	.	.	.
!	!	!	!	!	!	!	!	!	!	!	!	!LO:TX:a:t=t	!	!	!	!	!	!	!
8A\	.	.	8a\	.	8dd\	.	8ee\	.	.	.	.	2ee\	.	.	.	.	.	.	.
8A\	.	.	8a\	.	8dd\	.	8ee\	.	.	.	.	.	.	.	.	.	.	.	.
8A\	.	.	8a\	.	8cc#X\	.	8ee\	.	.	.	.	.	.	.	.	.	.	.	.
*	*	*	*custos:b	*	*	*	*	*	*	*	*	*	*	*	*	*	*	*	*
8A\J	.	.	8a\J	.	8cc#\J	.	8ee\J	.	.	.	.	.	.	.	.	.	.	.	.
*Xtremolo	*	*	*Xtremolo	*	*	*	*	*	*	*	*	*	*	*	*	*	*	*	*
=47	=47	=47	=47	=47	=47	=47	=47	=47	=47	=47	=47	=47	=47	=47	=47	=47	=47	=47	=47
!	!	!	!LO:LB:g=original	!	!LO:TX:t=P:problem=mixed beam	!	!	!	!	!	!	!	!	!	!	!	!	!	!
8B\L	.	.	8b\L	.	8dd\L	.	8dd\L	.	2.ryy	2.ryy	2.ryy	4dd\	-ste,	0.r	0.r	0.r	.	0.r	.
8B\	.	.	8b\	.	8f#/	.	8dd\	.	.	.	.	.	.	.	.	.	.	.	.
8A\	.	.	8a\	.	8f#/	.	8dd\	.	.	.	.	4r	.	.	.	.	.	.	.
8A\	.	.	8a\	.	8f#/	.	8dd\	.	.	.	.	.	.	.	.	.	.	.	.
8G\	.	.	8g\	.	8b/	.	8dd\	.	.	.	.	4r	.	.	.	.	.	.	.
8G\J	.	.	8g\J	.	8b/J	.	8dd\J	.	.	.	.	.	.	.	.	.	.	.	.
=48	=48	=48	=48	=48	=48	=48	=48	=48	=48	=48	=48	=48	=48	=48	=48	=48	=48	=48	=48
4F#\	.	.	4f#\	.	4a/	.	4dd\	.	2.ryy	2.ryy	2.ryy	8r	.	.	.	.	.	.	.
.	.	.	.	.	.	.	.	.	.	.	.	(8a\L	Je-	.	.	.	.	.	.
4r	.	.	4r	.	4r	.	4r	.	.	.	.	8dd\	.	.	.	.	.	.	.
.	.	.	.	.	.	.	.	.	.	.	.	8ccn\	.	.	.	.	.	.	.
4F#\	.	.	4f#\	.	4a/	.	4dd\	.	.	.	.	8b\	.	.	.	.	.	.	.
.	.	.	.	.	.	.	.	.	.	.	.	8a#X\J)	.	.	.	.	.	.	.
=49	=49	=49	=49	=49	=49	=49	=49	=49	=49	=49	=49	=49	=49	=49	=49	=49	=49	=49	=49
8G\L	.	.	8g\L	.	8d/L	.	8b\L	.	2.ryy	2.ryy	2.ryy	(4b\	.	.	.	.	.	.	.
8G\	.	.	8g\	.	8d/J	.	8b\	.	.	.	.	.	.	.	.	.	.	.	.
!	!	!	!	!	!LO:LB:g=original	!	!	!	!	!	!	!	!	!	!	!	!	!	!
8A\	.	.	8a\	.	8b/L	.	8dd#X\	.	.	.	.	4dd#X\	.	.	.	.	.	.	.
8A\	.	.	8a\	.	8b/	.	8dd#\	.	.	.	.	.	.	.	.	.	.	.	.
8G\	.	.	8g\	.	8b/	.	8ee\	.	.	.	.	4ee\)	.	.	.	.	.	.	.
8G\J	.	.	8g\J	.	8b/J	.	8ee\J	.	.	.	.	.	.	.	.	.	.	.	.
=50	=50	=50	=50	=50	=50	=50	=50	=50	=50	=50	=50	=50	=50	=50	=50	=50	=50	=50	=50
*	*	*	*	*	*tremolo	*	*	*	*	*	*	*	*	*	*	*	*	*	*
8D#X\L	.	.	8d#X\L	.	8b/L	.	8ff#\L	.	2.ryy	2.ryy	2.ryy	(4ff#\	.	.	.	.	.	.	.
8D#\	.	.	8d#\	.	8b/	.	8ff#\	.	.	.	.	.	.	.	.	.	.	.	.
8E\	.	.	8e\	.	8b/	.	8gg\	.	.	.	.	4gg\	.	.	.	.	.	.	.
8E\	.	.	8e\	.	8b/	.	8gg\	.	.	.	.	.	.	.	.	.	.	.	.
8G\	.	.	8g\	.	8b/	.	8ee\	.	.	.	.	4ee\)	-su	.	.	.	.	.	.
8G\J	.	.	8g\J	.	8b/J	.	8ee\J	.	.	.	.	.	.	.	.	.	.	.	.
=51	=51	=51	=51	=51	=51	=51	=51	=51	=51	=51	=51	=51	=51	=51	=51	=51	=51	=51	=51
*	*	*	*tremolo	*	*	*	*	*	*	*	*	*	*	*	*	*	*	*	*
8A\L	.	.	8a\L	.	8a/L	.	8dd\L	.	2.ryy	2.ryy	2.ryy	4dd\	Chri-	2.r	2.r	2.r	.	2.r	.
8A\J	.	.	8a\	.	8a/	.	8ee\J	.	.	.	.	.	.	.	.	.	.	.	.
*tremolo	*	*	*	*	*	*	*	*	*	*	*	*	*	*	*	*	*	*	*
!	!	!	!	!	!	!	!LO:TX:a:t=t	!	!	!	!	!LO:TX:a:t=t	!	!	!	!	!	!	!
8AA/L	.	.	8a\	.	8a/	.	2ee\	.	.	.	.	2ee\	.	.	.	.	.	.	.
8AA/	.	.	8a\	.	8a/J	.	.	.	.	.	.	.	.	.	.	.	.	.	.
*	*	*	*	*	*Xtremolo	*	*	*	*	*	*	*	*	*	*	*	*	*	*
8AA/	.	.	8a\	.	8g/L	.	.	.	.	.	.	.	.	.	.	.	.	.	.
8AA/J	.	.	8a\J	.	8g/J	.	.	.	.	.	.	.	.	.	.	.	.	.	.
*Xtremolo	*	*	*Xtremolo	*	*	*	*	*	*	*	*	*	*	*	*	*	*	*	*
=52	=52	=52	=52	=52	=52	=52	=52	=52	=52	=52	=52	=52	=52	=52	=52	=52	=52	=52	=52
!	!	!LO:DY:a:t=f&colon;	!	!LO:DY:a:t=for&colon;	!	!LO:DY:a:t=for&colon;	!	!LO:DY:a:t=for&colon;:rj	!	!	!	!	!	!	!	!	!	!	!
8D\L	.	f	8d\L	f	4f#/	f	4dd/	f	2.ryy	2.ryy	2.ryy	4dd\	-ste	4dd/	4aa\	4f#/	.	4dd\	.
16d\L	.	.	16dd\L	.	.	.	.	.	.	.	.	.	.	.	.	.	.	.	.
16c#X\JJ	.	.	16cc#X\JJ	.	.	.	.	.	.	.	.	.	.	.	.	.	.	.	.
8d\L	.	.	8dd\L	.	4f#/ 4dd	.	4d/ 4a 4ff#	.	.	.	.	4r	.	4dd/	4aa\	4f#/	.	4dd\	.
8A\	.	.	8a\	.	.	.	.	.	.	.	.	.	.	.	.	.	.	.	.
8F#\	.	.	8f#\	.	4f#/ 4dd	.	4d/ 4a 4ff#	.	.	.	.	4r	.	4dd/	4aa\	4f#/	.	4dd\	.
8A\J	.	.	8a\J	.	.	.	.	.	.	.	.	.	.	.	.	.	.	.	.
=53	=53	=53	=53	=53	=53	=53	=53	=53	=53	=53	=53	=53	=53	=53	=53	=53	=53	=53	=53
!	!	!	!	!	!	!	!	!	!	!	!	!LO:LB:g=original	!	!	!	!	!	!	!
!LO:TX:b:t=verte.	!	!	!	!	!	!	!	!	!	!	!	!LO:TX:a:t=16	!	!	!	!	!	!	!
4D\	.	.	4d\	.	4f#/ 4dd	.	16ff#\LL	.	2.ryy	2.ryy	2.ryy	0.r	.	4dd/	4aa\	4f#/	.	4dd\	.
.	.	.	.	.	.	.	16a'\	.	.	.	.	.	.	.	.	.	.	.	.
.	.	.	.	.	.	.	16b'\	.	.	.	.	.	.	.	.	.	.	.	.
.	.	.	.	.	.	.	16cc#X'\JJ	.	.	.	.	.	.	.	.	.	.	.	.
!LO:PB:g=original	!	!	!	!	!	!	!	!	!	!	!	!	!	!	!	!	!	!	!
4r	.	.	4r	.	4r	.	16dd'\LL	.	.	.	.	.	.	4r	4r	4r	.	4r	.
.	.	.	.	.	.	.	16a'\	.	.	.	.	.	.	.	.	.	.	.	.
.	.	.	.	.	.	.	16ff#'\	.	.	.	.	.	.	.	.	.	.	.	.
.	.	.	.	.	.	.	16ee'\JJ	.	.	.	.	.	.	.	.	.	.	.	.
4F#\	.	.	4f#\	.	8d/L	.	16dd'\LL	.	.	.	.	.	.	4r	4r	4d/	.	4a/	.
.	.	.	.	.	.	.	16cc#'\	.	.	.	.	.	.	.	.	.	.	.	.
.	.	.	.	.	8d/J	.	16b'\	.	.	.	.	.	.	.	.	.	.	.	.
.	.	.	.	.	.	.	16a#X'\JJ	.	.	.	.	.	.	.	.	.	.	.	.
=54	=54	=54	=54	=54	=54	=54	=54	=54	=54	=54	=54	=54	=54	=54	=54	=54	=54	=54	=54
*tremolo	*	*	*tremolo	*	*	*	*	*	*	*	*	*	*	*	*	*	*	*	*
!	!	!	!	!	!	!	!LO:LB:g=original	!	!	!	!	!	!	!	!	!	!	!	!
.	.	.	.	.	.	.	8qqa#X/	.	.	.	.	.	.	.	.	.	.	.	.
8G\L	.	.	8g\L	.	8d/L	.	4b/	.	2.ryy	2.ryy	2.ryy	.	.	0.r	0.r	4d/	.	4b/	.
8G\	.	.	8g\	.	8d/	.	.	.	.	.	.	.	.	.	.	.	.	.	.
8G\	.	.	8g\	.	8d/	.	8r	.	.	.	.	.	.	.	.	4g/	.	4b/	.
8G\J	.	.	8g\J	.	8d/	.	16gg\LL	.	.	.	.	.	.	.	.	.	.	.	.
*Xtremolo	*	*	*Xtremolo	*	*	*	*	*	*	*	*	*	*	*	*	*	*	*	*
.	.	.	.	.	.	.	16ff#\JJ	.	.	.	.	.	.	.	.	.	.	.	.
8G#X\L	.	.	8g#X\L	.	8e/	.	16ee\LL	.	.	.	.	.	.	.	.	4e/	.	8ee\L	.
.	.	.	.	.	.	.	16dd\	.	.	.	.	.	.	.	.	.	.	.	.
8G#\J	.	.	8g#\J	.	8e/J	.	16cc#X\	.	.	.	.	.	.	.	.	.	.	8dd\J	.
.	.	.	.	.	.	.	16dd\JJ	.	.	.	.	.	.	.	.	.	.	.	.
=55	=55	=55	=55	=55	=55	=55	=55	=55	=55	=55	=55	=55	=55	=55	=55	=55	=55	=55	=55
8A\L	.	.	8a\L	.	4f#/	.	4dd\	.	2.ryy	2.ryy	2.ryy	.	.	.	.	4f#/	.	4dd\	.
16A\L	.	.	16a\L	.	.	.	.	.	.	.	.	.	.	.	.	.	.	.	.
16G#X\JJ	.	.	16g#X\JJ	.	.	.	.	.	.	.	.	.	.	.	.	.	.	.	.
8A\L	.	.	8a\L	.	4e/	.	4cc#X\	.	.	.	.	.	.	.	.	4e/	.	4cc#X\	.
8E\	.	.	8e\	.	.	.	.	.	.	.	.	.	.	.	.	.	.	.	.
8C#X\	.	.	8c#X\	.	4r	.	4r	.	.	.	.	.	.	.	.	4r	.	4r	.
8E\J	.	.	8e\J	.	.	.	.	.	.	.	.	.	.	.	.	.	.	.	.
=56	=56	=56	=56	=56	=56	=56	=56	=56	=56	=56	=56	=56	=56	=56	=56	=56	=56	=56	=56
!	!	!	!	!	!LO:TX:a:t=1	!	!	!	!	!	!	!	!	!	!	!LO:TX:a:t=8.	!	!	!
4AA/	.	.	4A/	.	2.r	.	2.r	.	2.ryy	2.ryy	2.ryy	.	.	.	.	0.r	.	0.r	.
4r	.	.	4r	.	.	.	.	.	.	.	.	.	.	.	.	.	.	.	.
4r	.	.	4r	.	.	.	.	.	.	.	.	.	.	.	.	.	.	.	.
=57	=57	=57	=57	=57	=57	=57	=57	=57	=57	=57	=57	=57	=57	=57	=57	=57	=57	=57	=57
!	!	!LO:DY:a:t=p&colon;:rj	!LO:TX:a:t=7	!	!	!LO:DY:a:t=p&colon;:rj	!	!LO:DY:a:t=p&colon;:rj	!	!	!	!	!	!	!	!	!	!	!
4C#X/	.	p	0.r	.	4a/	p	4gg\	p	2.ryy	2.ryy	2.ryy	0.r	.	.	.	.	.	.	.
4r	.	.	.	.	4r	.	4r	.	.	.	.	.	.	.	.	.	.	.	.
4C#/	.	.	.	.	4a/	.	4gg\	.	.	.	.	.	.	.	.	.	.	.	.
=58	=58	=58	=58	=58	=58	=58	=58	=58	=58	=58	=58	=58	=58	=58	=58	=58	=58	=58	=58
4D/	.	.	.	.	4a/	.	4ff#\	.	2.ryy	2.ryy	2.ryy	.	.	0.r	0.r	.	.	.	.
4r	.	.	.	.	4r	.	4r	.	.	.	.	.	.	.	.	.	.	.	.
4D/	.	.	.	.	4a/	.	4ff#\	.	.	.	.	.	.	.	.	.	.	.	.
=59	=59	=59	=59	=59	=59	=59	=59	=59	=59	=59	=59	=59	=59	=59	=59	=59	=59	=59	=59
4C#X/	.	.	.	.	4a/	.	4gg\	.	2.ryy	2.ryy	2.ryy	.	.	.	.	.	.	.	.
4r	.	.	.	.	4r	.	4r	.	.	.	.	.	.	.	.	.	.	.	.
4C#/	.	.	.	.	4a/	.	4gg\	.	.	.	.	.	.	.	.	.	.	.	.
=60	=60	=60	=60	=60	=60	=60	=60	=60	=60	=60	=60	=60	=60	=60	=60	=60	=60	=60	=60
4D\	.	.	.	.	4a/	.	4ff#\	.	2.ryy	2.ryy	2.ryy	.	.	.	.	0.r	.	0.r	.
4r	.	.	.	.	4r	.	4r	.	.	.	.	.	.	.	.	.	.	.	.
4F#\	.	.	.	.	4a/	.	4dd\	.	.	.	.	.	.	.	.	.	.	.	.
=61	=61	=61	=61	=61	=61	=61	=61	=61	=61	=61	=61	=61	=61	=61	=61	=61	=61	=61	=61
4G\	.	.	1.r	.	4g/	.	4dd\	.	2.ryy	2.ryy	2.ryy	0.r	.	.	.	.	.	.	.
4A\	.	.	.	.	4a/	.	4dd\	.	.	.	.	.	.	.	.	.	.	.	.
4AA/	.	.	.	.	4g/	.	4cc#X\	.	.	.	.	.	.	.	.	.	.	.	.
=62	=62	=62	=62	=62	=62	=62	=62	=62	=62	=62	=62	=62	=62	=62	=62	=62	=62	=62	=62
4F#\	.	.	.	.	4f#/	.	4dd\	.	2.ryy	2.ryy	2.ryy	.	.	1.r	1.r	.	.	.	.
4r	.	.	.	.	4r	.	4r	.	.	.	.	.	.	.	.	.	.	.	.
4F#\	.	.	.	.	4f#/	.	4dd\	.	.	.	.	.	.	.	.	.	.	.	.
=63	=63	=63	=63	=63	=63	=63	=63	=63	=63	=63	=63	=63	=63	=63	=63	=63	=63	=63	=63
*	*	*	*	*	*	*	*	*	*	*	*	*	*	*	*	*	*	*custos:dd	*
!	!	!	!	!	!LO:LB:g=original	!	!	!	!	!	!	!	!	!	!	!	!	!	!
4G\	.	.	2.r	.	4g/	.	4dd\	.	2.ryy	2.ryy	2.ryy	.	.	.	.	.	.	.	.
4A\	.	.	.	.	4a/	.	4dd\	.	.	.	.	.	.	.	.	.	.	.	.
*custos:D	*	*	*	*	*	*	*	*	*	*	*	*	*	*	*	*	*	*	*
4AA/	.	.	.	.	4a/	.	4cc#X\	.	.	.	.	.	.	.	.	.	.	.	.
=64	=64	=64	=64	=64	=64	=64	=64	=64	=64	=64	=64	=64	=64	=64	=64	=64	=64	=64	=64
*	*	*	*tremolo	*	*tremolo	*	*	*	*	*	*	*	*	*	*	*	*	*	*
!LO:LB:g=original	!	!LO:DY:a:t=for&colon;	!LO:LB:g=original	!	!	!LO:DY:a:t=for&colon;	!	!LO:DY:a:t=for&colon;	!	!	!	!	!	!	!	!LO:LB:g=original	!	!LO:LB:g=original	!
8D\L	.	f	8d\L	.	16a/LL	f	4dd\	f	2.ryy	2.ryy	2.ryy	.	.	4dd/	4aa\	2.a/	.	2.dd\	.
.	.	.	.	.	16a/	.	.	.	.	.	.	.	.	.	.	.	.	.	.
8F#\J	.	.	8d\	.	16a/	.	.	.	.	.	.	.	.	.	.	.	.	.	.
.	.	.	.	.	16a/	.	.	.	.	.	.	.	.	.	.	.	.	.	.
*tremolo	*	*	*	*	*	*	*	*	*	*	*	*	*	*tremolo	*tremolo	*	*	*	*
8F#\L	.	.	8d\	.	16a/	.	16dd\LL	.	.	.	.	.	.	8dd/L	8aa\L	.	.	.	.
!	!	!	!	!	!	!	!LO:SIC:v:s=16cc#\	!	!	!	!	!	!	!	!	!	!	!	!
.	.	.	.	.	16a/	.	16cc\	.	.	.	.	.	.	.	.	.	.	.	.
8F#\	.	.	8d\	.	16a/	.	16dd\	.	.	.	.	.	.	8dd/	8aa\	.	.	.	.
.	.	.	.	.	16a/	.	16ee\JJ	.	.	.	.	.	.	.	.	.	.	.	.
8F#\	.	.	8d\	.	16a/	.	8dd\L	.	.	.	.	.	.	8dd/	8aa\	.	.	.	.
.	.	.	.	.	16a/	.	.	.	.	.	.	.	.	.	.	.	.	.	.
8F#\J	.	.	8d\J	.	16a/	.	8dd\J	.	.	.	.	.	.	8dd/J	8aa\J	.	.	.	.
.	.	.	.	.	16a/JJ	.	.	.	.	.	.	.	.	.	.	.	.	.	.
*	*	*	*	*	*	*	*	*	*	*	*	*	*	*	*Xtremolo	*	*	*	*
=65	=65	=65	=65	=65	=65	=65	=65	=65	=65	=65	=65	=65	=65	=65	=65	=65	=65	=65	=65
!	!	!	!	!	!	!	!LO:PB:g=original	!	!	!	!	!	!	!	!	!	!	!	!
8G\L	.	.	8d\L	.	16b/LL	.	4b\	.	2.ryy	2.ryy	2.ryy	0.r	.	8dd/L	4bb\	2.b/	.	2.dd\	.
.	.	.	.	.	16b/	.	.	.	.	.	.	.	.	.	.	.	.	.	.
8G\	.	.	8d\	.	16b/	.	.	.	.	.	.	.	.	8dd/	.	.	.	.	.
.	.	.	.	.	16b/	.	.	.	.	.	.	.	.	.	.	.	.	.	.
*	*	*	*	*	*	*	*	*	*	*	*	*	*	*	*tremolo	*	*	*	*
8G\	.	.	8d\	.	16b/	.	16dd\LL	.	.	.	.	.	.	8dd/	8bb\L	.	.	.	.
.	.	.	.	.	16b/	.	16cc#X\	.	.	.	.	.	.	.	.	.	.	.	.
8G\	.	.	8d\	.	16b/	.	16dd\	.	.	.	.	.	.	8dd/	8bb\	.	.	.	.
.	.	.	.	.	16b/	.	16ee\JJ	.	.	.	.	.	.	.	.	.	.	.	.
8G\	.	.	8d\	.	16b/	.	8dd\L	.	.	.	.	.	.	8dd/	8bb\	.	.	.	.
.	.	.	.	.	16b/	.	.	.	.	.	.	.	.	.	.	.	.	.	.
8G\J	.	.	8d\J	.	16b/	.	8dd\J	.	.	.	.	.	.	8dd/J	8bb\J	.	.	.	.
.	.	.	.	.	16b/JJ	.	.	.	.	.	.	.	.	.	.	.	.	.	.
*	*	*	*	*	*	*	*	*	*	*	*	*	*	*Xtremolo	*Xtremolo	*	*	*	*
=66	=66	=66	=66	=66	=66	=66	=66	=66	=66	=66	=66	=66	=66	=66	=66	=66	=66	=66	=66
!	!	!	!	!	!	!	!	!	!	!	!	!	!	!	!	!	!	!	!
8F#\L	.	.	8d\L	.	16a/LL	.	4a/	.	2.ryy	2.ryy	2.ryy	.	.	4dd/	4aa\	2.a/	.	2.dd\	.
.	.	.	.	.	16a/	.	.	.	.	.	.	.	.	.	.	.	.	.	.
8F#\	.	.	8d\	.	16a/	.	.	.	.	.	.	.	.	.	.	.	.	.	.
.	.	.	.	.	16a/	.	.	.	.	.	.	.	.	.	.	.	.	.	.
*	*	*	*	*	*	*	*	*	*	*	*	*	*	*tremolo	*tremolo	*	*	*	*
8F#\	.	.	8d\	.	16a/	.	16dd\LL	.	.	.	.	.	.	8dd/L	8aa\L	.	.	.	.
!	!	!	!	!	!	!	!LO:SIC:v:s=16cc#	!	!	!	!	!	!	!	!	!	!	!	!
.	.	.	.	.	16a/	.	16cc\	.	.	.	.	.	.	.	.	.	.	.	.
8F#\	.	.	8d\	.	16a/	.	16dd\	.	.	.	.	.	.	8dd/	8aa\	.	.	.	.
.	.	.	.	.	16a/	.	16ee\JJ	.	.	.	.	.	.	.	.	.	.	.	.
8F#\	.	.	8d\	.	16a/	.	8dd\L	.	.	.	.	.	.	8dd/	8aa\	.	.	.	.
.	.	.	.	.	16a/	.	.	.	.	.	.	.	.	.	.	.	.	.	.
8F#\J	.	.	8d\J	.	16a/	.	8dd\J	.	.	.	.	.	.	8dd/J	8aa\J	.	.	.	.
.	.	.	.	.	16a/JJ	.	.	.	.	.	.	.	.	.	.	.	.	.	.
*Xtremolo	*	*	*Xtremolo	*	*Xtremolo	*	*	*	*	*	*	*	*	*Xtremolo	*Xtremolo	*	*	*	*
=67	=67	=67	=67	=67	=67	=67	=67	=67	=67	=67	=67	=67	=67	=67	=67	=67	=67	=67	=67
!LO:TX:t=P:problem=mixed beam	!	!	!	!	!	!	!	!	!	!	!	!	!	!	!	!	!	!	!
8G\L	.	.	8d\L	.	8b/L	.	8b\L	.	2.ryy	2.ryy	2.ryy	.	.	4gg\	4bb\	8b/L	.	8gg\L	.
8G\	.	.	8d\	.	8g/J	.	16gg\L	.	.	.	.	.	.	.	.	8g/J	.	8ee\J	.
.	.	.	.	.	.	.	16ee\JJ	.	.	.	.	.	.	.	.	.	.	.	.
8A\	.	.	8d\	.	4f#/	.	4dd\	.	.	.	.	.	.	4aa\	4aa\	4f#/ 4a	.	4dd\	.
8A\	.	.	8d\	.	.	.	.	.	.	.	.	.	.	.	.	.	.	.	.
8AA/	.	.	8g\	.	4e/	.	4cc#X\	.	.	.	.	.	.	4aa\	4aa\	4e/	.	4cc#X\	.
8AA/J	.	.	8g\J	.	.	.	.	.	.	.	.	.	.	.	.	.	.	.	.
=68	=68	=68	=68	=68	=68	=68	=68	=68	=68	=68	=68	=68	=68	=68	=68	=68	=68	=68	=68
4D\	.	.	4f#\	.	4f#/	.	4dd\	.	2.ryy	2.ryy	2.ryy	.	.	4dd/	4aa\	4f#/	.	4dd\	.
4DD/	.	.	4d\	.	4f#/	.	4d/	.	.	.	.	.	.	4dd/	4aa\	4f#/	.	4dd\	.
!	!	!	!	!	!	!	!	!	!	!	!	!	!	!LO:LB:g=original	!	!	!	!	!
4r	.	.	4r	.	4r	.	4r	.	.	.	.	.	.	4r	4r	4r	.	4r	.
=69	=69	=69	=69	=69	=69	=69	=69	=69	=69	=69	=69	=69	=69	=69	=69	=69	=69	=69	=69
!	!	!	!	!	!	!	!	!	!	!	!	!	!	!	!LO:LB:g=original	!	!	!	!
!	!	!LO:DY:a:t=p&colon;:rj	!	!LO:DY:a:t=pia&colon;:rj	!	!LO:DY:a:t=p&colon;:rj	!	!LO:DY:a:t=p&colon;:rj	!	!	!	!	!	!LO:TX:a:t=28	!LO:TX:a:t=28	!	!	!	!
8d\L	.	p	8d\L	p	8b\L	p	8dd\L	p	2.ryy	2.ryy	2.ryy	2dd\	Quo-	0.r	0.r	0.r	.	0.r	.
8d\	.	.	8d\	.	8b\	.	8dd\	.	.	.	.	.	.	.	.	.	.	.	.
8B\	.	.	8B\	.	8b\	.	8dd\	.	.	.	.	.	.	.	.	.	.	.	.
8B\	.	.	8B\	.	8b\	.	8dd\	.	.	.	.	.	.	.	.	.	.	.	.
8A\	.	.	8A\	.	8b\	.	8dd\	.	.	.	.	4dd\	-ni-	.	.	.	.	.	.
8A\J	.	.	8A\J	.	8b\J	.	8dd\J	.	.	.	.	.	.	.	.	.	.	.	.
=70	=70	=70	=70	=70	=70	=70	=70	=70	=70	=70	=70	=70	=70	=70	=70	=70	=70	=70	=70
*tremolo	*	*	*tremolo	*	*	*	*	*	*	*	*	*	*	*	*	*	*	*	*
8G#X\L	.	.	8G#X/L	.	8e/L	.	8dd\L	.	2.ryy	2.ryy	2.ryy	(4dd\	-am	.	.	.	.	.	.
8G#X\	.	.	8G#X/	.	8e/	.	8dd\	.	.	.	.	.	.	.	.	.	.	.	.
8G#X\	.	.	8G#X/	.	8e/	.	8ee\	.	.	.	.	4ee\)	.	.	.	.	.	.	.
8G#X\	.	.	8G#X/J	.	8e/	.	8ee\	.	.	.	.	.	.	.	.	.	.	.	.
*	*	*	*Xtremolo	*	*	*	*	*	*	*	*	*	*	*	*	*	*	*	*
8G#X\	.	.	8e\L	.	8e/	.	8b\	.	.	.	.	4b\	tu	.	.	.	.	.	.
8G#X\J	.	.	8e\J	.	8e/J	.	8b\J	.	.	.	.	.	.	.	.	.	.	.	.
*Xtremolo	*	*	*	*	*	*	*	*	*	*	*	*	*	*	*	*	*	*	*
=71	=71	=71	=71	=71	=71	=71	=71	=71	=71	=71	=71	=71	=71	=71	=71	=71	=71	=71	=71
8A\L	.	.	8A/L	.	4e/	.	8cc\L	.	2.ryy	2.ryy	2.ryy	(4cc\	so-	.	.	.	.	.	.
8A\	.	.	8A/J	.	.	.	8cc\	.	.	.	.	.	.	.	.	.	.	.	.
8E\	.	.	8e\L	.	4r	.	8b\	.	.	.	.	4b\	.	.	.	.	.	.	.
8E\	.	.	8e\J	.	.	.	8b\	.	.	.	.	.	.	.	.	.	.	.	.
8Fn\	.	.	8fn\L	.	4fn/	.	8a\	.	.	.	.	4a\)	-lus	.	.	.	.	.	.
8F\J	.	.	8f\J	.	.	.	8a\J	.	.	.	.	.	.	.	.	.	.	.	.
=72	=72	=72	=72	=72	=72	=72	=72	=72	=72	=72	=72	=72	=72	=72	=72	=72	=72	=72	=72
!LO:TX:t=P:problem=mixed beam	!	!	!	!	!LO:SIC:v:s=8fn	!	!	!	!	!	!	!	!	!	!	!	!	!	!
8D\L	.	.	8d\L	.	8f#/L	.	8b/L	.	2.ryy	2.ryy	2.ryy	(4b\	san-	.	.	.	.	.	.
!	!	!	!	!	!LO:SIC:v:s=8fn	!	!	!	!	!	!	!	!	!	!	!	!	!	!
8D\	.	.	8d\	.	8f#/J	.	8b/	.	.	.	.	.	.	.	.	.	.	.	.
*	*	*	*	*	*tremolo	*	*	*	*	*	*	*	*	*	*	*	*	*	*
8E\	.	.	8c\	.	8e/L	.	8a/	.	.	.	.	4a\	.	.	.	.	.	.	.
8E\	.	.	8c\	.	8e/	.	8a/	.	.	.	.	.	.	.	.	.	.	.	.
8EE/	.	.	8B\	.	8e/	.	8g#X/	.	.	.	.	4g#X\)	.	.	.	.	.	.	.
8EE/J	.	.	8B\J	.	8e/J	.	8g#/J	.	.	.	.	.	.	.	.	.	.	.	.
*	*	*	*	*	*Xtremolo	*	*	*	*	*	*	*	*	*	*	*	*	*	*
=73	=73	=73	=73	=73	=73	=73	=73	=73	=73	=73	=73	=73	=73	=73	=73	=73	=73	=73	=73
!LO:TX:t=P:problem=mixed beam	!	!	!	!	!	!	!	!	!	!	!	!	!	!	!	!	!	!	!
8AA/L	.	.	4c\	.	4e/	.	4a/	.	2.ryy	2.ryy	2.ryy	4a\	-ctus	0.r	0.r	0.r	.	0.r	.
8A\	.	.	.	.	.	.	.	.	.	.	.	.	.	.	.	.	.	.	.
8E\	.	.	4r	.	4r	.	4r	.	.	.	.	4r	.	.	.	.	.	.	.
8A\	.	.	.	.	.	.	.	.	.	.	.	.	.	.	.	.	.	.	.
8Cn\	.	.	4r	.	4r	.	4r	.	.	.	.	4r	.	.	.	.	.	.	.
8E\J	.	.	.	.	.	.	.	.	.	.	.	.	.	.	.	.	.	.	.
=74	=74	=74	=74	=74	=74	=74	=74	=74	=74	=74	=74	=74	=74	=74	=74	=74	=74	=74	=74
*	*	*	*tremolo	*	*	*	*	*	*	*	*	*	*	*	*	*	*	*	*
!LO:TX:t=P:problem=mixed beam	!	!	!	!	!	!	!LO:LB:g=original	!	!	!	!	!	!	!	!	!	!	!	!
8AA/L	.	.	8e\L	.	8a/L	.	8cc\L	.	2.ryy	2.ryy	2.ryy	2cc\	Quo-	.	.	.	.	.	.
8A\	.	.	8e\	.	8a/	.	8cc\	.	.	.	.	.	.	.	.	.	.	.	.
8A\	.	.	8e\	.	8a/	.	8cc\	.	.	.	.	.	.	.	.	.	.	.	.
8A\	.	.	8e\	.	8a/	.	8cc\	.	.	.	.	.	.	.	.	.	.	.	.
8G\	.	.	8e\	.	8a/	.	8cc\	.	.	.	.	4cc\	-ni-	.	.	.	.	.	.
8G\J	.	.	8e\J	.	8a/J	.	8cc\J	.	.	.	.	.	.	.	.	.	.	.	.
=75	=75	=75	=75	=75	=75	=75	=75	=75	=75	=75	=75	=75	=75	=75	=75	=75	=75	=75	=75
*tremolo	*	*	*	*	*tremolo	*	*	*	*	*	*	*	*	*	*	*	*	*	*
!LO:LB:g=original	!	!	!	!	!	!	!	!	!	!	!	!	!	!	!	!	!	!	!
8F#\L	.	.	8d\L	.	8a/L	.	8cc\L	.	2.ryy	2.ryy	2.ryy	4cc\	-am	.	.	.	.	.	.
8F#\	.	.	8d\	.	8a/	.	8cc\	.	.	.	.	.	.	.	.	.	.	.	.
8F#\	.	.	8d\	.	8a/	.	8dd\	.	.	.	.	4dd\	.	.	.	.	.	.	.
8F#\	.	.	8d\	.	8a/J	.	8dd\	.	.	.	.	.	.	.	.	.	.	.	.
*	*	*	*	*	*Xtremolo	*	*	*	*	*	*	*	*	*	*	*	*	*	*
8F#\	.	.	8d\	.	8d/L	.	8a\	.	.	.	.	4a\	tu	.	.	.	.	.	.
*	*	*	*	*	*custos:d	*	*	*	*	*	*	*	*	*	*	*	*	*	*
!	!	!	!	!	!LO:TX:b:t=vertatur.	!	!	!	!	!	!	!	!	!	!	!	!	!	!
8F#\J	.	.	8d\J	.	8d/J	.	8a\J	.	.	.	.	.	.	.	.	.	.	.	.
*Xtremolo	*	*	*Xtremolo	*	*	*	*	*	*	*	*	*	*	*	*	*	*	*	*
=76	=76	=76	=76	=76	=76	=76	=76	=76	=76	=76	=76	=76	=76	=76	=76	=76	=76	=76	=76
!	!	!	!	!	!LO:PB:g=original	!	!	!	!	!	!	!	!	!	!	!	!	!	!
8G\L	.	.	4d\	.	8d/L	.	8b/L	.	2.ryy	2.ryy	2.ryy	(4b\	so-	.	.	.	.	.	.
8G\	.	.	.	.	8d/	.	8b/	.	.	.	.	.	.	.	.	.	.	.	.
!	!	!	!LO:LB:g=original	!	!	!	!	!	!	!	!	!	!	!	!	!	!	!	!
8D\	.	.	4r	.	8c/	.	8a/	.	.	.	.	4a\)	.	.	.	.	.	.	.
8D\	.	.	.	.	8c/	.	8a/	.	.	.	.	.	.	.	.	.	.	.	.
8E\	.	.	4r	.	8B/	.	8g/	.	.	.	.	4g/	-lus	.	.	.	.	.	.
8E\J	.	.	.	.	8B/J	.	8g/J	.	.	.	.	.	.	.	.	.	.	.	.
=77	=77	=77	=77	=77	=77	=77	=77	=77	=77	=77	=77	=77	=77	=77	=77	=77	=77	=77	=77
!	!	!	!LO:TX:a:t=13	!	!	!	!	!	!	!	!	!	!	!	!	!	!	!	!
8C/L	.	.	0.r	.	8c/L	.	8a/L	.	2.ryy	2.ryy	2.ryy	(4a/	Do-	0.r	0.r	0.r	.	0.r	.
8C/J	.	.	.	.	8c/	.	8a/	.	.	.	.	.	.	.	.	.	.	.	.
*tremolo	*	*	*	*	*	*	*	*	*	*	*	*	*	*	*	*	*	*	*
8D/L	.	.	.	.	8B/	.	8g/	.	.	.	.	4g/	.	.	.	.	.	.	.
8D/	.	.	.	.	8B/	.	8g/	.	.	.	.	.	.	.	.	.	.	.	.
8D/	.	.	.	.	8A/	.	8f#/	.	.	.	.	4f#/)	-mi-	.	.	.	.	.	.
8D/J	.	.	.	.	8A/J	.	8f#/J	.	.	.	.	.	.	.	.	.	.	.	.
*Xtremolo	*	*	*	*	*	*	*	*	*	*	*	*	*	*	*	*	*	*	*
=78	=78	=78	=78	=78	=78	=78	=78	=78	=78	=78	=78	=78	=78	=78	=78	=78	=78	=78	=78
8G\L	.	.	.	.	8B/L	.	4g/	.	2.ryy	2.ryy	2.ryy	4g/	-nus,	.	.	.	.	.	.
8G\	.	.	.	.	8B/	.	.	.	.	.	.	.	.	.	.	.	.	.	.
8A\	.	.	.	.	8c/	.	4r	.	.	.	.	4r	.	.	.	.	.	.	.
8A\	.	.	.	.	8c/	.	.	.	.	.	.	.	.	.	.	.	.	.	.
8B\	.	.	.	.	8g/	.	4dd\	.	.	.	.	4dd\	tu	.	.	.	.	.	.
8B\J	.	.	.	.	8g/J	.	.	.	.	.	.	.	.	.	.	.	.	.	.
=79	=79	=79	=79	=79	=79	=79	=79	=79	=79	=79	=79	=79	=79	=79	=79	=79	=79	=79	=79
!	!	!	!	!	!	!	!	!	!	!	!	!LO:LB:g=original	!	!	!	!	!	!	!
4c\	.	.	.	.	4g/	.	8ee\L	.	2.ryy	2.ryy	2.ryy	8ee\L	so-	.	.	.	.	.	.
.	.	.	.	.	.	.	8dd\	.	.	.	.	8dd\	.	.	.	.	.	.	.
4C/	.	.	.	.	4r	.	8cc\	.	.	.	.	8cc\	.	.	.	.	.	.	.
.	.	.	.	.	.	.	8b\	.	.	.	.	8b\J	.	.	.	.	.	.	.
!	!	!	!	!	!	!	!	!	!	!	!	!	!	!	!	!	!	!	!
4C#X/	x 6	.	.	.	4e/	.	8a\	.	.	.	.	8a\L	-lus	.	.	.	.	.	.
.	x 5	.	.	.	.	.	8g\J	.	.	.	.	8g\J	.	.	.	.	.	.	.
=80	=80	=80	=80	=80	=80	=80	=80	=80	=80	=80	=80	=80	=80	=80	=80	=80	=80	=80	=80
*tremolo	*	*	*	*	*	*	*	*	*	*	*	*	*	*	*	*	*	*	*
!	!	!	!	!	!	!	!LO:TX:t=P:problem=mixed beam	!	!	!	!	!	!	!	!	!	!	!	!
8D\L	.	.	.	.	8f#/L	.	8f#/L	.	2.ryy	2.ryy	2.ryy	2f#/	Do-	.	.	.	.	.	.
8D\	.	.	.	.	8f#/	.	8f#/	.	.	.	.	.	.	.	.	.	.	.	.
8D\	.	.	.	.	8f#/	.	8dd\	.	.	.	.	.	.	.	.	.	.	.	.
8D\	.	.	.	.	8f#/	.	8dd\	.	.	.	.	.	.	.	.	.	.	.	.
8D\	.	.	.	.	8g/	.	8cc#X\	.	.	.	.	4g/	-mi-	.	.	.	.	.	.
8D\J	.	.	.	.	8g/J	.	8cc#\J	.	.	.	.	.	.	.	.	.	.	.	.
*Xtremolo	*	*	*	*	*	*	*	*	*	*	*	*	*	*	*	*	*	*	*
=81	=81	=81	=81	=81	=81	=81	=81	=81	=81	=81	=81	=81	=81	=81	=81	=81	=81	=81	=81
4D\	.	.	0.r	.	8a/L	.	4dd\	.	2.ryy	2.ryy	2.ryy	4a\	-nus	0.r	0.r	0.r	.	0.r	.
.	.	.	.	.	8g/	.	.	.	.	.	.	.	.	.	.	.	.	.	.
8D/L	.	.	.	.	8f#/	.	4r	.	.	.	.	4r	.	.	.	.	.	.	.
8Cn/	.	.	.	.	8e/	.	.	.	.	.	.	.	.	.	.	.	.	.	.
8BB/	.	.	.	.	8d/	.	4r	.	.	.	.	4r	.	.	.	.	.	.	.
8AA/J	.	.	.	.	8c/J	.	.	.	.	.	.	.	.	.	.	.	.	.	.
=82	=82	=82	=82	=82	=82	=82	=82	=82	=82	=82	=82	=82	=82	=82	=82	=82	=82	=82	=82
!LO:TX:t=P:problem=mixed beam	!	!	!	!	!	!	!	!	!	!	!	!	!	!	!	!	!	!	!
8GG/L	.	.	.	.	8B/L	.	2g/	.	2.ryy	2.ryy	2.ryy	2g\	Quo-	.	.	.	.	.	.
8G\	.	.	.	.	8d/	.	.	.	.	.	.	.	.	.	.	.	.	.	.
8B\	.	.	.	.	8d/	.	.	.	.	.	.	.	.	.	.	.	.	.	.
8B\	.	.	.	.	8d/	.	.	.	.	.	.	.	.	.	.	.	.	.	.
8G\	.	.	.	.	8d/	.	8b/L	.	.	.	.	8b\L	-ni-	.	.	.	.	.	.
8G\J	.	.	.	.	8d/J	.	8dd/J	.	.	.	.	8dd\J	.	.	.	.	.	.	.
=83	=83	=83	=83	=83	=83	=83	=83	=83	=83	=83	=83	=83	=83	=83	=83	=83	=83	=83	=83
*	*	*	*	*	*tremolo	*	*	*	*	*	*	*	*	*	*	*	*	*	*
.	.	.	.	.	.	.	8qqdd/	.	.	.	.	8qqdd/	.	.	.	.	.	.	.
8A\L	.	.	.	.	8a/L	.	2ccn\	.	2.ryy	2.ryy	2.ryy	2cc\	-am	.	.	.	.	.	.
8A\	.	.	.	.	8a/	.	.	.	.	.	.	.	.	.	.	.	.	.	.
8F#\	.	.	.	.	8a/	.	.	.	.	.	.	.	.	.	.	.	.	.	.
8F#\	.	.	.	.	8a/J	.	.	.	.	.	.	.	.	.	.	.	.	.	.
*	*	*	*	*	*Xtremolo	*	*	*	*	*	*	*	*	*	*	*	*	*	*
!	!	!	!	!	!	!	!LO:LB:g=original	!	!	!	!	!	!	!	!	!	!	!	!
8G\	.	.	.	.	8g/L	.	4b\	.	.	.	.	4b\	tu	.	.	.	.	.	.
8G\J	.	.	.	.	8g/J	.	.	.	.	.	.	.	.	.	.	.	.	.	.
=84	=84	=84	=84	=84	=84	=84	=84	=84	=84	=84	=84	=84	=84	=84	=84	=84	=84	=84	=84
.	.	.	.	.	.	.	8qqb/	.	.	.	.	.	.	.	.	.	.	.	.
!	!	!	!	!	!	!	!	!	!	!	!	!LO:LB:g=original	!	!	!	!	!	!	!
8C/L	.	.	.	.	4e/	.	4a/	.	2.ryy	2.ryy	2.ryy	4a\	so-	.	.	.	.	.	.
8C/	.	.	.	.	.	.	.	.	.	.	.	.	.	.	.	.	.	.	.
8AA/	.	.	.	.	8e/L	.	8cc\L	.	.	.	.	8cc\L	.	.	.	.	.	.	.
8AA/	.	.	.	.	8c/	.	8a\	.	.	.	.	8a\J	.	.	.	.	.	.	.
8D/	.	.	.	.	8B/	.	8g\	.	.	.	.	8g/L	-lus	.	.	.	.	.	.
*custos:G	*	*	*	*	*	*	*	*	*	*	*	*	*	*	*	*	*	*	*
8D/J	.	.	.	.	8A/J	.	8f#\J	.	.	.	.	8f#/J	.	.	.	.	.	.	.
=85	=85	=85	=85	=85	=85	=85	=85	=85	=85	=85	=85	=85	=85	=85	=85	=85	=85	=85	=85
!LO:LB:g=original	!	!	!	!	!	!	!	!	!	!	!	!	!	!	!	!	!	!	!
8G\L	.	.	0.r	.	8B/L	.	4g/	.	2.ryy	2.ryy	2.ryy	4g/	san-	0.r	0.r	0.r	.	0.r	.
8A\	.	.	.	.	8c/	.	.	.	.	.	.	.	.	.	.	.	.	.	.
8B\	.	.	.	.	8d/	.	4d/	.	.	.	.	4d/	-ctus	.	.	.	.	.	.
8c\	.	.	.	.	8e/	.	.	.	.	.	.	.	.	.	.	.	.	.	.
8B\	.	.	.	.	8d/	.	4r	.	.	.	.	4r	.	.	.	.	.	.	.
8A\J	.	.	.	.	8c/J	.	.	.	.	.	.	.	.	.	.	.	.	.	.
=86	=86	=86	=86	=86	=86	=86	=86	=86	=86	=86	=86	=86	=86	=86	=86	=86	=86	=86	=86
8G\L	.	.	.	.	8B/L	.	8g/L	.	2.ryy	2.ryy	2.ryy	2g\	Quo-	.	.	.	.	.	.
8G\	.	.	.	.	8d/	.	8g/	.	.	.	.	.	.	.	.	.	.	.	.
8B\	.	.	.	.	8d/	.	8g/	.	.	.	.	.	.	.	.	.	.	.	.
8B\	.	.	.	.	8d/	.	8g/	.	.	.	.	.	.	.	.	.	.	.	.
8G\	.	.	.	.	8d/	.	8b/	.	.	.	.	8b\L	-ni-	.	.	.	.	.	.
8G\J	.	.	.	.	8d/J	.	8dd/J	.	.	.	.	8dd\J	.	.	.	.	.	.	.
=87	=87	=87	=87	=87	=87	=87	=87	=87	=87	=87	=87	=87	=87	=87	=87	=87	=87	=87	=87
.	.	.	.	.	.	.	.	.	.	.	.	8qdd/	.	.	.	.	.	.	.
8A\L	.	.	.	.	8a/L	.	8dd\L	.	2.ryy	2.ryy	2.ryy	2cc\	-am	.	.	.	.	.	.
8A\	.	.	.	.	8a/	.	8dd\	.	.	.	.	.	.	.	.	.	.	.	.
8F#\	.	.	.	.	8a/	.	8cc\	.	.	.	.	.	.	.	.	.	.	.	.
8F#\	.	.	.	.	8a/	.	8cc\	.	.	.	.	.	.	.	.	.	.	.	.
*	*	*	*	*	*	*	*	*	*	*	*	*custos:a	*	*	*	*	*	*	*
8G\	.	.	.	.	8g/	.	8b\	.	.	.	.	4b\	tu	.	.	.	.	.	.
8G\J	.	.	.	.	8g/J	.	8b\J	.	.	.	.	.	.	.	.	.	.	.	.
=88	=88	=88	=88	=88	=88	=88	=88	=88	=88	=88	=88	=88	=88	=88	=88	=88	=88	=88	=88
*tremolo	*	*	*	*	*tremolo	*	*	*	*	*	*	*	*	*	*	*	*	*	*
!	!	!	!	!	!LO:LB:g=original	!	!	!	!	!	!	!LO:LB:g=original	!	!	!	!	!	!	!
8C/L	.	.	.	.	8e/L	.	8a/L	.	2.ryy	2.ryy	2.ryy	(4a\	so-	.	.	.	.	.	.
8C/	.	.	.	.	8e/	.	8a/	.	.	.	.	.	.	.	.	.	.	.	.
8C/	.	.	.	.	8e/	.	8ee/	.	.	.	.	4ee\)	.	.	.	.	.	.	.
8C/	.	.	.	.	8e/	.	8ee/	.	.	.	.	.	.	.	.	.	.	.	.
8C/	.	.	.	.	8e/	.	8cc/	.	.	.	.	4cc\	-lus	.	.	.	.	.	.
8C/J	.	.	.	.	8e/J	.	8cc/J	.	.	.	.	.	.	.	.	.	.	.	.
*	*	*	*	*	*Xtremolo	*	*	*	*	*	*	*	*	*	*	*	*	*	*
=89	=89	=89	=89	=89	=89	=89	=89	=89	=89	=89	=89	=89	=89	=89	=89	=89	=89	=89	=89
.	.	.	.	.	.	.	8qb/	.	.	.	.	8qb/	.	.	.	.	.	.	.
8C/L	.	.	2.r	.	8e/L	.	8a/L	.	2.ryy	2.ryy	2.ryy	2a\	Do-	0.r	0.r	0.r	.	0.r	.
8C/	.	.	.	.	8e/	.	8a/	.	.	.	.	.	.	.	.	.	.	.	.
8C/	.	.	.	.	8a/	.	8ee/	.	.	.	.	.	.	.	.	.	.	.	.
8C/J	.	.	.	.	8a/	.	8ee/	.	.	.	.	.	.	.	.	.	.	.	.
*Xtremolo	*	*	*tremolo	*	*	*	*	*	*	*	*	*	*	*	*	*	*	*	*
8C#X/L	.	.	.	.	8g/	.	8ee/	.	.	.	.	4g/	-mi-	.	.	.	.	.	.
8C#/J	.	.	.	.	8g/J	.	8ee/J	.	.	.	.	.	.	.	.	.	.	.	.
=90	=90	=90	=90	=90	=90	=90	=90	=90	=90	=90	=90	=90	=90	=90	=90	=90	=90	=90	=90
!LO:TX:t=P:problem=mixed beam	!	!	!	!LO:DY:a:t=p.	!	!	!	!	!	!	!	!	!	!	!	!	!	!	!
8D/L	.	.	8d\L	p	8g/L	.	8ee/L	.	2.ryy	2.ryy	2.ryy	(4g/	-nus	.	.	.	.	.	.
8D/	.	.	8d\	.	8g/	.	8ee/	.	.	.	.	.	.	.	.	.	.	.	.
8d\	.	.	8d\	.	8f#/	.	8dd/	.	.	.	.	4f#/)	.	.	.	.	.	.	.
8d\	.	.	8d\	.	8f#/	.	8dd/J	.	.	.	.	.	.	.	.	.	.	.	.
8cn\	.	.	8d\	.	8f#/	.	8dd\L	.	.	.	.	4r	.	.	.	.	.	.	.
8c\J	.	.	8d\J	.	8f#/J	.	8dd\J	.	.	.	.	.	.	.	.	.	.	.	.
=91	=91	=91	=91	=91	=91	=91	=91	=91	=91	=91	=91	=91	=91	=91	=91	=91	=91	=91	=91
*tremolo	*	*	*Xtremolo	*	*tremolo	*	*	*	*	*	*	*	*	*	*	*	*	*	*
8B\L	.	.	4d\	.	8g/L	.	16dd\LL	.	2.ryy	2.ryy	2.ryy	2.dd\	tu	.	.	.	.	.	.
.	.	.	.	.	.	.	16cc\	.	.	.	.	.	.	.	.	.	.	.	.
8B\	.	.	.	.	8g/	.	16dd\	.	.	.	.	.	.	.	.	.	.	.	.
.	.	.	.	.	.	.	16ee\JJ	.	.	.	.	.	.	.	.	.	.	.	.
8B\	.	.	4r	.	8g/	.	8dd\L	.	.	.	.	.	.	.	.	.	.	.	.
8B\	.	.	.	.	8g/	.	8dd\	.	.	.	.	.	.	.	.	.	.	.	.
8B\	.	.	4r	.	8g/	.	8dd\	.	.	.	.	.	.	.	.	.	.	.	.
8B\J	.	.	.	.	8g/J	.	8dd\J	.	.	.	.	.	.	.	.	.	.	.	.
*	*	*	*	*	*Xtremolo	*	*	*	*	*	*	*	*	*	*	*	*	*	*
=92	=92	=92	=92	=92	=92	=92	=92	=92	=92	=92	=92	=92	=92	=92	=92	=92	=92	=92	=92
8c\L	.	.	2.r	.	16g/LL	.	16ee\LL	.	2.ryy	2.ryy	2.ryy	2ee\	so-	.	.	.	.	.	.
.	.	.	.	.	16f#/	.	16dd\	.	.	.	.	.	.	.	.	.	.	.	.
8c\	.	.	.	.	16g/	.	16ee\	.	.	.	.	.	.	.	.	.	.	.	.
.	.	.	.	.	16a/JJ	.	16ff#\JJ	.	.	.	.	.	.	.	.	.	.	.	.
8c\	.	.	.	.	8g/L	.	8ee\L	.	.	.	.	.	.	.	.	.	.	.	.
8c\	.	.	.	.	8g/	.	8ee\J	.	.	.	.	.	.	.	.	.	.	.	.
!	!	!	!	!	!	!	!LO:LB:g=original	!	!	!	!	!	!	!	!	!	!	!	!
8c\	.	.	.	.	8g/	.	8ee\L	.	.	.	.	4ee\	-lus	.	.	.	.	.	.
8c\J	.	.	.	.	8g/J	.	8ee\J	.	.	.	.	.	.	.	.	.	.	.	.
=93	=93	=93	=93	=93	=93	=93	=93	=93	=93	=93	=93	=93	=93	=93	=93	=93	=93	=93	=93
*	*	*	*tremolo	*	*	*	*	*	*	*	*	*	*	*	*	*	*	*	*
8c\L	.	.	8d\L	.	8a/L	.	16ff#\LL	.	2.ryy	2.ryy	2.ryy	2.ff#\	Al-	0.r	0.r	0.r	.	0.r	.
.	.	.	.	.	.	.	16ee\	.	.	.	.	.	.	.	.	.	.	.	.
8c\	.	.	8d\	.	8a/	.	16ff#\	.	.	.	.	.	.	.	.	.	.	.	.
.	.	.	.	.	.	.	16gg\JJ	.	.	.	.	.	.	.	.	.	.	.	.
8c\	.	.	8d\	.	8a/	.	8ff#\L	.	.	.	.	.	.	.	.	.	.	.	.
8c\	.	.	8d\	.	8a/	.	8ff#\	.	.	.	.	.	.	.	.	.	.	.	.
8c\	.	.	8d\	.	8a/	.	8ff#\	.	.	.	.	.	.	.	.	.	.	.	.
8c\J	.	.	8d\J	.	8a/J	.	8ff#\J	.	.	.	.	.	.	.	.	.	.	.	.
*Xtremolo	*	*	*	*	*	*	*	*	*	*	*	*	*	*	*	*	*	*	*
=94	=94	=94	=94	=94	=94	=94	=94	=94	=94	=94	=94	=94	=94	=94	=94	=94	=94	=94	=94
8B\L	.	.	8d\L	.	16b\LL	.	8gg\L	.	2.ryy	2.ryy	2.ryy	2gg\	-tiſ-	.	.	.	.	.	.
.	.	.	.	.	16a\	.	.	.	.	.	.	.	.	.	.	.	.	.	.
8B\	.	.	8d\	.	16b\	.	16bb\L	.	.	.	.	.	.	.	.	.	.	.	.
.	.	.	.	.	16cc\JJ	.	16aa\JJ	.	.	.	.	.	.	.	.	.	.	.	.
!	!	!	!	!	!	!	!	!	!	!	!	!	!	!	!	!	!	!	!
*	*	*	*	*	*tremolo	*	*	*	*	*	*	*	*	*	*	*	*	*	*
8G\	.	.	8d\	.	8b\L	.	8gg\L	.	.	.	.	.	.	.	.	.	.	.	.
8G\	.	.	8d\	.	8b\	.	8gg\	.	.	.	.	.	.	.	.	.	.	.	.
8G\	.	.	8d\	.	8b\	.	8gg\	.	.	.	.	4gg\	-si-	.	.	.	.	.	.
8G\J	.	.	8d\J	.	8b\J	.	8gg\J	.	.	.	.	.	.	.	.	.	.	.	.
*	*	*	*Xtremolo	*	*Xtremolo	*	*	*	*	*	*	*	*	*	*	*	*	*	*
=95	=95	=95	=95	=95	=95	=95	=95	=95	=95	=95	=95	=95	=95	=95	=95	=95	=95	=95	=95
4E\	.	.	4e\	.	4b\	.	4gg\	.	2.ryy	2.ryy	2.ryy	4gg\	-mus	.	.	.	.	.	.
!LO:LB:g=original	!	!	!	!	!	!	!	!	!	!	!	!	!	!	!	!	!	!	!
4r	.	.	4r	.	4r	.	16gg\LL	.	.	.	.	4r	.	.	.	.	.	.	.
.	.	.	.	.	.	.	16ff#\	.	.	.	.	.	.	.	.	.	.	.	.
.	.	.	.	.	.	.	16ee\	.	.	.	.	.	.	.	.	.	.	.	.
.	.	.	.	.	.	.	16dd\JJ	.	.	.	.	.	.	.	.	.	.	.	.
4r	.	.	4r	.	4r	.	16cc\LL	.	.	.	.	4r	.	.	.	.	.	.	.
.	.	.	.	.	.	.	16b\	.	.	.	.	.	.	.	.	.	.	.	.
.	.	.	.	.	.	.	16a\	.	.	.	.	.	.	.	.	.	.	.	.
.	.	.	.	.	.	.	16g\JJ	.	.	.	.	.	.	.	.	.	.	.	.
=96	=96	=96	=96	=96	=96	=96	=96	=96	=96	=96	=96	=96	=96	=96	=96	=96	=96	=96	=96
8C/L	.	.	8e\L	.	8g/L	.	8ee\L	.	2.ryy	2.ryy	2.ryy	8ee\L	Je-	.	.	.	.	.	.
8C/J	.	.	8e\J	.	8g/	.	16dd\L	.	.	.	.	16dd\L	-su	.	.	.	.	.	.
.	.	.	.	.	.	.	16cc\JJ	.	.	.	.	16cc\JJ	.	.	.	.	.	.	.
*tremolo	*	*	*tremolo	*	*	*	*	*	*	*	*	*	*	*	*	*	*	*	*
8D/L	.	.	8d\L	.	8g/	.	4b/	.	.	.	.	(4b\	Chri-	.	.	.	.	.	.
8D/	.	.	8d\	.	8g/	.	.	.	.	.	.	.	.	.	.	.	.	.	.
8D/	.	.	8d\	.	8f#/	.	4a/	.	.	.	.	4a\)	.	.	.	.	.	.	.
8D/J	.	.	8d\J	.	8f#/J	.	.	.	.	.	.	.	.	.	.	.	.	.	.
*Xtremolo	*	*	*Xtremolo	*	*	*	*	*	*	*	*	*	*	*	*	*	*	*	*
=97	=97	=97	=97	=97	=97	=97	=97	=97	=97	=97	=97	=97	=97	=97	=97	=97	=97	=97	=97
!	!	!LO:DY:a:t=f.	!	!LO:DY:a:t=for&colon;	!	!LO:DY:a:t=for&colon;	!	!LO:DY:a:t=for&colon;	!	!	!	!	!	!	!	!	!LO:DY:a:t=f&colon;	!	!
4GG/	.	f	4G/	f	8g/	f	8b\	f	2.ryy	2.ryy	2.ryy	4g/	-ste	4gg\	4bb\	4b\	f	4gg\	.
.	.	.	.	.	4b/	.	4gg\	.	.	.	.	.	.	.	.	.	.	.	.
4G\	.	.	4g\	.	.	.	.	.	.	.	.	4r	.	4gg\	4bb\	4b\	.	4gg\	.
.	.	.	.	.	4b/	.	4gg\	.	.	.	.	.	.	.	.	.	.	.	.
4F#\	.	.	4f#\	.	.	.	.	.	.	.	.	4r	.	4gg\	4bb\	4b\	.	4gg\	.
.	.	.	.	.	[8b/	.	[8gg\	.	.	.	.	.	.	.	.	.	.	.	.
=98	=98	=98	=98	=98	=98	=98	=98	=98	=98	=98	=98	=98	=98	=98	=98	=98	=98	=98	=98
!	!	!	!	!	!	!	!	!	!	!	!	!LO:LB:g=original	!	!	!	!	!	!	!
4E\	.	.	4e\	.	8b/]	.	8gg\]	.	2.ryy	2.ryy	2.ryy	2.r	.	4gg\	4bb\	4b\	.	4gg\	.
.	.	.	.	.	4b/	.	4gg\	.	.	.	.	.	.	.	.	.	.	.	.
4E\	.	.	4e\	.	.	.	.	.	.	.	.	.	.	4gg\	4bb\	4b\	.	4gg\	.
.	.	.	.	.	4b/	.	4gg\	.	.	.	.	.	.	.	.	.	.	.	.
4E\	.	.	4e\	.	.	.	.	.	.	.	.	.	.	4gg\	4bb\	4b\	.	4gg\	.
.	.	.	.	.	[8b/	.	8gg\	.	.	.	.	.	.	.	.	.	.	.	.
=99	=99	=99	=99	=99	=99	=99	=99	=99	=99	=99	=99	=99	=99	=99	=99	=99	=99	=99	=99
!	!	!	!	!	!	!LO:DY:a:t=p&colon;	!	!LO:DY:a:t=p&colon;:rj	!	!	!	!	!	!	!	!	!	!	!
4D\	.	.	4d\	.	4b/]	p	4gg;\	p	2.ryy	2.ryy	2.ryy	2gg;\	Je-	4gg\	4bb\	4b\	.	4gg\	.
4r;	.	.	4r;	.	4r	.	4r	.	.	.	.	.	.	4r;	4r;	4r;	.	4r;	.
4r	.	.	4r	.	4r;	.	4r	.	.	.	.	8g\L	-su	4r	4r	4r	.	4r	.
.	.	.	.	.	.	.	.	.	.	.	.	8a\J	.	.	.	.	.	.	.
=100	=100	=100	=100	=100	=100	=100	=100	=100	=100	=100	=100	=100	=100	=100	=100	=100	=100	=100	=100
!LO:TX:a:t=Dacapo uſque ad [||;;]	!	!	!LO:TX:a:t=Dacapo ut supra	!	!LO:TX:b:t=Dacapo.	!	!	!	!	!	!	!LO:TX:t=P:problem=pojedyncza kreska taktowa	!	!LO:TX:a:t=Dacapo ad Finem [||;;]	!LO:TX:a:t=Dacapo usque ad [||;;] Finem.	!	!	!	!
2.r;	.	.	2.r;	.	2.r;	.	2.r;	.	2.r;yy	2.r;yy	2.r;yy	2.ccT\	Chri-	2.r;	2.r;	2.r;	.	2.r;	.
=101||	=101||	=101||	=101||	=101||	=101||	=101||	=101	=101	=101||	=101||	=101||	=101	=101	=101||	=101||	=101	=101	=101	=101
!	!	!	!	!	!	!	!	!LO:DY:a:t=f&colon;:rj	!	!	!	!	!	!	!	!	!	!	!
4GG/yy	.	.	4g\yy	.	4d/yy 4byy	.	4d/ 4b 4gg	f	2.ryy	2.ryy	2.ryy	4g\	-ste.	4b/yy	4gg\yy	4b\	.	4gg\	.
4BB/yy	.	.	4d\yy	.	4d/yy 4byy	.	4d/ 4b 4gg	.	.	.	.	4r	.	4b/yy	4gg\yy	4b\	.	4gg\	.
*	*	*	*	*	*	*	*custos:gg	*	*	*	*	*	*	*	*	*	*	*	*
4D/yy	.	.	4B/yy	.	4d/yy 4byy	.	4d/ 4b 4gg	.	.	.	.	4r	.	4b/yy	4gg\yy	4b\	.	4gg\	.
=102	=102	=102	=102	=102	=102	=102	=102	=102	=102	=102	=102	=102	=102	=102	=102	=102	=102	=102	=102
!	!	!	!	!	!	!	!LO:LB:g=original	!	!	!	!	!LO:TX:a:t=25.	!	!	!	!	!	!	!
4G\yy	.	.	4G/yy	.	4d/yy 4byy	.	16gg\LL	.	2.ryy	2.ryy	2.ryy	0.r	.	4b/yy	4gg\yy	4b\	.	4gg\	.
.	.	.	.	.	.	.	16dd\	.	.	.	.	.	.	.	.	.	.	.	.
.	.	.	.	.	.	.	16ee\	.	.	.	.	.	.	.	.	.	.	.	.
.	.	.	.	.	.	.	16ff#\JJ	.	.	.	.	.	.	.	.	.	.	.	.
4ryy	.	.	4ryy	.	4ryy	.	16gg\LL	.	.	.	.	.	.	4ryy	4ryy	4r	.	4r	.
.	.	.	.	.	.	.	16dd\	.	.	.	.	.	.	.	.	.	.	.	.
.	.	.	.	.	.	.	16bb\	.	.	.	.	.	.	.	.	.	.	.	.
.	.	.	.	.	.	.	16aa\JJ	.	.	.	.	.	.	.	.	.	.	.	.
*	*	*	*	*	*	*	*	*	*	*	*	*	*	*	*	*	*	*custos:ee	*
4ryy	.	.	4ryy	.	4ryy	.	16gg\LL	.	.	.	.	.	.	4ryy	4ryy	4r	.	4r	.
.	.	.	.	.	.	.	16ff#\	.	.	.	.	.	.	.	.	.	.	.	.
.	.	.	.	.	.	.	16ee\	.	.	.	.	.	.	.	.	.	.	.	.
.	.	.	.	.	.	.	16dd\JJ	.	.	.	.	.	.	.	.	.	.	.	.
=103	=103	=103	=103	=103	=103	=103	=103	=103	=103	=103	=103	=103	=103	=103	=103	=103	=103	=103	=103
.	.	.	.	.	.	.	8qqdd#X/	.	.	.	.	.	.	.	.	.	.	.	.
!	!	!	!	!	!	!	!	!	!	!	!	!	!	!	!	!	!	!LO:LB:g=original	!
8G\yyL	.	.	8g\yyL	.	8cc\Lyy	.	4ee\	.	2.ryy	2.ryy	2.ryy	.	.	4g/yy	4gg\yy	2.cc\	.	2.ee\	.
8G\yy	.	.	8g\yy	.	8cc\yy	.	.	.	.	.	.	.	.	.	.	.	.	.	.
8G\yy	.	.	8g\yy	.	8cc\yy	.	16ee\LL	.	.	.	.	.	.	8g/yyL	8gg\Lyy	.	.	.	.
.	.	.	.	.	.	.	16gg\	.	.	.	.	.	.	.	.	.	.	.	.
8G\yy	.	.	8g\yy	.	8cc\yy	.	16ff#\	.	.	.	.	.	.	8g/yy	8gg\yy	.	.	.	.
.	.	.	.	.	.	.	16gg\JJ	.	.	.	.	.	.	.	.	.	.	.	.
.	.	.	.	.	.	.	8qaa/	.	.	.	.	.	.	.	.	.	.	.	.
8G\yy	.	.	8g\yy	.	8cc\yy	.	8gg\L	.	.	.	.	.	.	8g/yy	8gg\yy	.	.	.	.
8G\yyJ	.	.	8g\yyJ	.	y8cc\Jyy	.	16ff#\L	.	.	.	.	.	.	8g/yyJ	8gg\Jyy	.	.	.	.
.	.	.	.	.	.	.	16ee\JJ	.	.	.	.	.	.	.	.	.	.	.	.
=104	=104	=104	=104	=104	=104	=104	=104	=104	=104	=104	=104	=104	=104	=104	=104	=104	=104	=104	=104
.	.	.	.	.	.	.	8qff#/	.	.	.	.	.	.	.	.	.	.	.	.
8G\Lyy	.	.	16G\LLyy	.	8cc\Lyy	.	8ee\L	.	2.ryy	2.ryy	2.ryy	.	.	8g/Lyy	8gg\Lyy	2.b\	.	2.dd\	.
.	.	.	16g\yy	.	.	.	.	.	.	.	.	.	.	.	.	.	.	.	.
8G\yy	.	.	16f#\yy	.	8b\Jyy	.	8dd\J	.	.	.	.	.	.	8g/yy	8gg\yy	.	.	.	.
.	.	.	16g\JJyy	.	.	.	.	.	.	.	.	.	.	.	.	.	.	.	.
8G\yy	.	.	16a\LLyy	.	8b\yyL	.	2dd\	.	.	.	.	.	.	8g/yy	8gg\yy	.	.	.	.
.	.	.	16g\yy	.	.	.	.	.	.	.	.	.	.	.	.	.	.	.	.
8G\yy	.	.	16f#\yy	.	8b\yy	.	.	.	.	.	.	.	.	8g/yy	8gg\yy	.	.	.	.
.	.	.	16g\JJyy	.	.	.	.	.	.	.	.	.	.	.	.	.	.	.	.
8G\yy	.	.	16b\LLyy	.	8b\yy	.	.	.	.	.	.	.	.	8g/yy	8gg\yy	.	.	.	.
.	.	.	16g\yy	.	.	.	.	.	.	.	.	.	.	.	.	.	.	.	.
8G\Jyy	.	.	16f#\yy	.	8b\yy	.	.	.	.	.	.	.	.	8g/Jyy	8gg\Jyy	.	.	.	.
.	.	.	16g\JJyy	.	.	.	.	.	.	.	.	.	.	.	.	.	.	.	.
=105	=105	=105	=105	=105	=105	=105	=105	=105	=105	=105	=105	=105	=105	=105	=105	=105	=105	=105	=105
!	!	!	!	!	!	!	!	!	!	!	!	!	!	!	!	!LO:LB:g=original	!	!	!
8G\Lyy	.	.	8d\Lyy	.	8a/Lyy	.	4cc\	.	2.ryy	2.ryy	2.ryy	.	.	8dd/Lyy	8aa\Lyy	2.a/	.	2.cc\	.
8G\yy	.	.	8f#\Jyy	.	8a/yy	.	.	.	.	.	.	.	.	8dd/yy	8aa\yy	.	.	.	.
8G\yy	.	.	8f#\yyL	.	8a/yy	.	16cc\LL	.	.	.	.	.	.	8dd/yy	8aa\yy	.	.	.	.
.	.	.	.	.	.	.	16dd\	.	.	.	.	.	.	.	.	.	.	.	.
8G\yy	.	.	8f#\yy	.	8a/yy	.	16cc\	.	.	.	.	.	.	8dd/yy	8aa\yy	.	.	.	.
.	.	.	.	.	.	.	16dd\JJ	.	.	.	.	.	.	.	.	.	.	.	.
.	.	.	.	.	.	.	8qff#/	.	.	.	.	.	.	.	.	.	.	.	.
8G\yy	.	.	8f#\yy	.	8a/yy	.	8ee\L	.	.	.	.	.	.	8dd/yy	8aa\yy	.	.	.	.
8G\Jyy	.	.	8f#\yyJ	.	8a/Jyy	.	16dd\L	.	.	.	.	.	.	8dd/Jyy	8aa\Jyy	.	.	.	.
.	.	.	.	.	.	.	16cc\JJ	.	.	.	.	.	.	.	.	.	.	.	.
=106	=106	=106	=106	=106	=106	=106	=106	=106	=106	=106	=106	=106	=106	=106	=106	=106	=106	=106	=106
!	!	!	!	!	!	!	!	!	!	!	!	!	!	!	!	!	!	!	!
.	.	.	.	.	.	.	8qdd/	.	.	.	.	.	.	.	.	.	.	.	.
8G\Lyy	.	.	16G\LLyy	.	8a/Lyy	.	8cc\L	.	2.ryy	2.ryy	2.ryy	0.r	.	8g/Lyy	8gg\Lyy	2.g/	.	2.b\	.
.	.	.	16g\yy	.	.	.	.	.	.	.	.	.	.	.	.	.	.	.	.
8G\yy	.	.	16f#\yy	.	8g/Jyy	.	8b\J	.	.	.	.	.	.	8g/yy	8gg\yy	.	.	.	.
.	.	.	16g\JJyy	.	.	.	.	.	.	.	.	.	.	.	.	.	.	.	.
8G\yy	.	.	16a\LLyy	.	8g/yyL	.	2b\	.	.	.	.	.	.	8g/yy	8gg\yy	.	.	.	.
.	.	.	16g\yy	.	.	.	.	.	.	.	.	.	.	.	.	.	.	.	.
8G\yy	.	.	16f#\yy	.	8g/yy	.	.	.	.	.	.	.	.	8g/yy	8gg\yy	.	.	.	.
.	.	.	16g\JJyy	.	.	.	.	.	.	.	.	.	.	.	.	.	.	.	.
8G\yy	.	.	16d\LLyy	.	8g/yy	.	.	.	.	.	.	.	.	8g/yy	8gg\yy	.	.	.	.
.	.	.	16B\yy	.	.	.	.	.	.	.	.	.	.	.	.	.	.	.	.
8G\Jyy	.	.	16d\yy	.	8g/yyJ	.	.	.	.	.	.	.	.	8g/Jyy	8gg\Jyy	.	.	.	.
.	.	.	16B\JJyy	.	.	.	.	.	.	.	.	.	.	.	.	.	.	.	.
=107	=107	=107	=107	=107	=107	=107	=107	=107	=107	=107	=107	=107	=107	=107	=107	=107	=107	=107	=107
!	!	!	!	!	!	!	!	!LO:DY:a:t=p&colon;:rj	!	!	!	!	!	!	!	!LO:LB:g=original	!LO:DY:a:t=p&colon;	!	!LO:DY:a:t=p&colon;:rj
8G\Lyy	.	.	8G\Lyy	.	8cc\Lyy	.	4ee\	p	2.ryy	2.ryy	2.ryy	.	.	2.ryy	2.ryy	2.cc\	p	2.ee\	p
8G\yy	.	.	8g\Jyy	.	8cc\yy	.	.	.	.	.	.	.	.	.	.	.	.	.	.
8G\yy	.	.	8g\yyL	.	8cc\yy	.	16ee\LL	.	.	.	.	.	.	.	.	.	.	.	.
.	.	.	.	.	.	.	16gg\	.	.	.	.	.	.	.	.	.	.	.	.
8G\yy	.	.	8g\yy	.	8cc\yy	.	16ff#\	.	.	.	.	.	.	.	.	.	.	.	.
.	.	.	.	.	.	.	16gg\JJ	.	.	.	.	.	.	.	.	.	.	.	.
.	.	.	.	.	.	.	8qaa/	.	.	.	.	.	.	.	.	.	.	.	.
8G\yy	.	.	8g\yy	.	8cc\yy	.	8gg\L	.	.	.	.	.	.	.	.	.	.	.	.
8G\Jyy	.	.	8g\yyJ	.	8cc\Jyy	.	16ff#\L	.	.	.	.	.	.	.	.	.	.	.	.
.	.	.	.	.	.	.	16ee\JJ	.	.	.	.	.	.	.	.	.	.	.	.
=108	=108	=108	=108	=108	=108	=108	=108	=108	=108	=108	=108	=108	=108	=108	=108	=108	=108	=108	=108
.	.	.	.	.	.	.	8qff#/	.	.	.	.	.	.	.	.	.	.	.	.
8G\Lyy	.	.	16G\LLyy	.	8cc\Lyy	.	8ee\L	.	2.ryy	2.ryy	2.ryy	.	.	2.ryy	2.ryy	2.b\	.	2.dd\	.
.	.	.	16g\yy	.	.	.	.	.	.	.	.	.	.	.	.	.	.	.	.
8G\yy	.	.	16f#\yy	.	8b\Jyy	.	8dd\J	.	.	.	.	.	.	.	.	.	.	.	.
.	.	.	16g\JJyy	.	.	.	.	.	.	.	.	.	.	.	.	.	.	.	.
8G\yy	.	.	16a\LLyy	.	8b\yyL	.	2dd\	.	.	.	.	.	.	.	.	.	.	.	.
.	.	.	16g\yy	.	.	.	.	.	.	.	.	.	.	.	.	.	.	.	.
8G\yy	.	.	16f#\yy	.	8b\yy	.	.	.	.	.	.	.	.	.	.	.	.	.	.
.	.	.	16g\JJyy	.	.	.	.	.	.	.	.	.	.	.	.	.	.	.	.
8G\yy	.	.	16b\LLyy	.	8b\yy	.	.	.	.	.	.	.	.	.	.	.	.	.	.
.	.	.	16g\yy	.	.	.	.	.	.	.	.	.	.	.	.	.	.	.	.
8G\Jyy	.	.	16f#\yy	.	8b\yyJ	.	.	.	.	.	.	.	.	.	.	.	.	.	.
.	.	.	16g\JJyy	.	.	.	.	.	.	.	.	.	.	.	.	.	.	.	.
=109	=109	=109	=109	=109	=109	=109	=109	=109	=109	=109	=109	=109	=109	=109	=109	=109	=109	=109	=109
8G\Lyy	.	.	8d\Lyy	.	8a/Lyy	.	4cc\	.	2.ryy	2.ryy	2.ryy	.	.	2.ryy	2.ryy	2.a/	.	2.cc\	.
8G\yy	.	.	8f#\Jyy	.	8a/yy	.	.	.	.	.	.	.	.	.	.	.	.	.	.
8G\yy	.	.	8f#\yyL	.	8a/yy	.	16cc\LL	.	.	.	.	.	.	.	.	.	.	.	.
.	.	.	.	.	.	.	16dd\	.	.	.	.	.	.	.	.	.	.	.	.
8G\yy	.	.	8f#\yy	.	8a/yy	.	16cc\	.	.	.	.	.	.	.	.	.	.	.	.
.	.	.	.	.	.	.	16dd\JJ	.	.	.	.	.	.	.	.	.	.	.	.
.	.	.	.	.	.	.	8qff#/	.	.	.	.	.	.	.	.	.	.	.	.
8G\yy	.	.	8f#\yy	.	8a/yy	.	8ee\L	.	.	.	.	.	.	.	.	.	.	.	.
8G\Jyy	.	.	8f#\yyJ	.	8a/Jyy	.	16dd\L	.	.	.	.	.	.	.	.	.	.	.	.
.	.	.	.	.	.	.	16cc\JJ	.	.	.	.	.	.	.	.	.	.	.	.
=110	=110	=110	=110	=110	=110	=110	=110	=110	=110	=110	=110	=110	=110	=110	=110	=110	=110	=110	=110
!	!	!	!	!	!	!	!LO:LB:g=original	!	!	!	!	!	!	!	!	!	!	!	!
.	.	.	.	.	.	.	8qdd/	.	.	.	.	.	.	.	.	.	.	.	.
8G\Lyy	.	.	16G\LLyy	.	8a/Lyy	.	8cc\L	.	2.ryy	2.ryy	2.ryy	0.r	.	2.ryy	2.ryy	2.g/	.	2.b\	.
.	.	.	16g\yy	.	.	.	.	.	.	.	.	.	.	.	.	.	.	.	.
8G\yy	.	.	16f#\yy	.	8g/Jyy	.	8b\J	.	.	.	.	.	.	.	.	.	.	.	.
.	.	.	16g\JJyy	.	.	.	.	.	.	.	.	.	.	.	.	.	.	.	.
8G\yy	.	.	16a\LLyy	.	8g/yyL	.	2b\	.	.	.	.	.	.	.	.	.	.	.	.
.	.	.	16g\yy	.	.	.	.	.	.	.	.	.	.	.	.	.	.	.	.
8G\yy	.	.	16f#\yy	.	8g/yy	.	.	.	.	.	.	.	.	.	.	.	.	.	.
.	.	.	16g\JJyy	.	.	.	.	.	.	.	.	.	.	.	.	.	.	.	.
8G\yy	.	.	16d\LLyy	.	8g/yy	.	.	.	.	.	.	.	.	.	.	.	.	.	.
.	.	.	16B\yy	.	.	.	.	.	.	.	.	.	.	.	.	.	.	.	.
8G\Jyy	.	.	16A\yy	.	8g/yyJ	.	.	.	.	.	.	.	.	.	.	.	.	.	.
.	.	.	16G\JJyy	.	.	.	.	.	.	.	.	.	.	.	.	.	.	.	.
=111	=111	=111	=111	=111	=111	=111	=111	=111	=111	=111	=111	=111	=111	=111	=111	=111	=111	=111	=111
!	!	!	!	!	!	!	!	!LO:DY:a:t=for&colon;:rj	!	!	!	!	!	!	!	!	!LO:DY:a:t=f&colon;:rj	!	!LO:DY:a:t=f&colon;:rj
4C/yy	.	.	4c/yy	.	4e/yy	.	16a/LL	f	2.ryy	2.ryy	2.ryy	.	.	2.ryy	2.ryy	4e/	f	4a/	f
.	.	.	.	.	.	.	16cc/	.	.	.	.	.	.	.	.	.	.	.	.
.	.	.	.	.	.	.	16ee/	.	.	.	.	.	.	.	.	.	.	.	.
.	.	.	.	.	.	.	16dd/JJ	.	.	.	.	.	.	.	.	.	.	.	.
4ryy	.	.	4ryy	.	4ryy	.	16cc/LL	.	.	.	.	.	.	.	.	4r	.	4r	.
.	.	.	.	.	.	.	16dd/	.	.	.	.	.	.	.	.	.	.	.	.
.	.	.	.	.	.	.	16cc/	.	.	.	.	.	.	.	.	.	.	.	.
.	.	.	.	.	.	.	16b/JJ	.	.	.	.	.	.	.	.	.	.	.	.
4C#X/yy	.	.	4A/yy	.	4e/yy	.	16a/LL	.	.	.	.	.	.	.	.	4e/	.	8a/L	.
.	.	.	.	.	.	.	16b/	.	.	.	.	.	.	.	.	.	.	.	.
.	.	.	.	.	.	.	16a/	.	.	.	.	.	.	.	.	.	.	8g/J	.
.	.	.	.	.	.	.	16g/JJ	.	.	.	.	.	.	.	.	.	.	.	.
=112	=112	=112	=112	=112	=112	=112	=112	=112	=112	=112	=112	=112	=112	=112	=112	=112	=112	=112	=112
8D\Lyy	.	.	8d\Lyy	.	4e/yy	.	4g/	.	2.ryy	2.ryy	2.ryy	.	.	8dd/Lyy	8dd/Lyy	4e/	.	4g/	.
16d\Lyy	.	.	16dd\Lyy	.	.	.	.	.	.	.	.	.	.	16dd/Lyy	16dd/Lyy	.	.	.	.
16c#X\JJyy	.	.	16cc#X\JJyy	.	.	.	.	.	.	.	.	.	.	16dd/JJyy	16dd/JJyy	.	.	.	.
8d\Lyy	.	.	8dd\Lyy	.	4d/yy	.	4f#/	.	.	.	.	.	.	8dd/yyL	8dd/yyL	4d/	.	4f#/	.
8A\yy	.	.	8a\yy	.	.	.	.	.	.	.	.	.	.	8dd/yy	8dd/yy	.	.	.	.
8F#X\yy	.	.	8f#\yy	.	4ryy	.	4r	.	.	.	.	.	.	8dd/yy	8dd/yy	4f#/	.	4r	.
8A\Jyy	.	.	8a\Jyy	.	.	.	.	.	.	.	.	.	.	8dd/yyJ	8dd/yyJ	.	.	.	.
=113	=113	=113	=113	=113	=113	=113	=113	=113	=113	=113	=113	=113	=113	=113	=113	=113	=113	=113	=113
!	!	!	!	!	!	!	!	!	!	!	!	!	!	!	!	!	!	!LO:TX:t=P:problem=7 zamiast 8	!
!	!	!	!	!	!	!	!	!	!	!	!	!	!	!	!	!	!	!LO:TX:a:t=7	!
4D\yy	.	.	4d\yy	.	2.ryy	.	2.r	.	2.ryy	2.ryy	2.ryy	.	.	4dd/yy	4dd/yy	4f#/	.	0.r	.
4ryy	.	.	4ryy	.	.	.	.	.	.	.	.	.	.	4ryy	4ryy	4r	.	.	.
4ryy	.	.	4ryy	.	.	.	.	.	.	.	.	.	.	4ryy	4ryy	4r	.	.	.
=114	=114	=114	=114	=114	=114	=114	=114	=114	=114	=114	=114	=114	=114	=114	=114	=114	=114	=114	=114
!	!	!	!	!	!	!	!	!LO:DY:a:t=pia&colon;:rj	!	!	!	!	!	!	!	!LO:TX:a:t=7	!	!	!
4F#\yy	.	.	4A/yy	.	4d/yy	.	4cc\	p	2.ryy	2.ryy	2.ryy	0.r	.	2.ryy	2.ryy	0.r	.	.	.
4ryy	.	.	4ryy	.	4ryy	.	4r	.	.	.	.	.	.	.	.	.	.	.	.
4F#\yy	.	.	4A/yy	.	4d/yy	.	4cc\	.	.	.	.	.	.	.	.	.	.	.	.
=115	=115	=115	=115	=115	=115	=115	=115	=115	=115	=115	=115	=115	=115	=115	=115	=115	=115	=115	=115
4G\yy	.	.	4G/yy	.	4d/yy	.	4b\	.	2.ryy	2.ryy	2.ryy	.	.	2.ryy	2.ryy	.	.	.	.
4ryy	.	.	4ryy	.	4ryy	.	4r	.	.	.	.	.	.	.	.	.	.	.	.
4G\yy	.	.	4G/yy	.	4d/yy	.	4b\	.	.	.	.	.	.	.	.	.	.	.	.
=116	=116	=116	=116	=116	=116	=116	=116	=116	=116	=116	=116	=116	=116	=116	=116	=116	=116	=116	=116
4F#\yy	.	.	4A/yy	.	4d/yy	.	4cc\	.	2.ryy	2.ryy	2.ryy	.	.	2.ryy	2.ryy	.	.	.	.
4ryy	.	.	4ryy	.	4ryy	.	4r	.	.	.	.	.	.	.	.	.	.	.	.
4F#\yy	.	.	4A/yy	.	4d/yy	.	4cc\	.	.	.	.	.	.	.	.	.	.	.	.
=117	=117	=117	=117	=117	=117	=117	=117	=117	=117	=117	=117	=117	=117	=117	=117	=117	=117	=117	=117
4G\yy	.	.	4G/yy	.	4d/yy	.	4b\	.	2.ryy	2.ryy	2.ryy	.	.	2.ryy	2.ryy	.	.	1.r	.
4ryy	.	.	4ryy	.	4ryy	.	4r	.	.	.	.	.	.	.	.	.	.	.	.
4B\yy	.	.	4B/yy	.	4d/yy	.	4g/	.	.	.	.	.	.	.	.	.	.	.	.
=118	=118	=118	=118	=118	=118	=118	=118	=118	=118	=118	=118	=118	=118	=118	=118	=118	=118	=118	=118
4c\yy	.	.	4c\yy	.	4e/yy	.	4g/	.	2.ryy	2.ryy	2.ryy	0.r	.	2.ryy	2.ryy	1.r	.	.	.
4d\yy	.	.	4d\yy	.	4d/yy	.	4g/	.	.	.	.	.	.	.	.	.	.	.	.
4D/yy	.	.	4d\yy	.	4c/yy	.	4f#/	.	.	.	.	.	.	.	.	.	.	.	.
=119	=119	=119	=119	=119	=119	=119	=119	=119	=119	=119	=119	=119	=119	=119	=119	=119	=119	=119	=119
4G\yy	.	.	4d\yy	.	4B/yy	.	4g/	.	2.ryy	2.ryy	2.ryy	.	.	2.ryy	2.ryy	.	.	2.r	.
4ryy	.	.	4ryy	.	4ryy	.	4r	.	.	.	.	.	.	.	.	.	.	.	.
!	!	!	!	!	!	!	!LO:LB:g=original	!	!	!	!	!	!	!	!	!	!	!	!
4B\yy	.	.	4B/yy	.	4d/yy	.	4g/	.	.	.	.	.	.	.	.	.	.	.	.
=120	=120	=120	=120	=120	=120	=120	=120	=120	=120	=120	=120	=120	=120	=120	=120	=120	=120	=120	=120
4c\yy	.	.	4c\yy	.	4c/yy	.	4g/	.	2.ryy	2.ryy	2.ryy	.	.	2.ryy	2.ryy	2.r	.	2.ryy	.
4d\yy	.	.	4d\yy	.	4d/yy	.	4g/	.	.	.	.	.	.	.	.	.	.	.	.
4D/yy	.	.	4d\yy	.	4c/yy	.	4f#/	.	.	.	.	.	.	.	.	.	.	.	.
=121	=121	=121	=121	=121	=121	=121	=121	=121	=121	=121	=121	=121	=121	=121	=121	=121	=121	=121	=121
!	!	!	!	!	!	!	!	!LO:DY:a:t=for	!	!	!	!	!	!	!	!	!	!	!
8G\Lyy	.	.	8g\Lyy	.	16dd\LLyy	.	4g/	f	2.ryy	2.ryy	2.ryy	.	.	8g/Lyy	8gg/Lyy	2.g/	.	2.dd\	.
.	.	.	.	.	16dd\yy	.	.	.	.	.	.	.	.	.	.	.	.	.	.
8B\Jyy	.	.	8g\yy	.	16dd\yy	.	.	.	.	.	.	.	.	16g/Lyy	16gg/Lyy	.	.	.	.
.	.	.	.	.	16dd\JJyy	.	.	.	.	.	.	.	.	16g/JJyy	16gg/JJyy	.	.	.	.
8B\yyL	.	.	8g\yy	.	16dd\yyLL	.	16gg\LL	.	.	.	.	.	.	8g/yyL	8gg\yyL	.	.	.	.
.	.	.	.	.	16dd\yy	.	16ff#\	.	.	.	.	.	.	.	.	.	.	.	.
8B\yy	.	.	8g\yy	.	16dd\yy	.	16gg\	.	.	.	.	.	.	8g/yy	8gg\yy	.	.	.	.
.	.	.	.	.	16dd\yy	.	16aa\JJ	.	.	.	.	.	.	.	.	.	.	.	.
8B\yy	.	.	8g\yy	.	16dd\yy	.	8gg\L	.	.	.	.	.	.	8g/yy	8gg\yy	.	.	.	.
.	.	.	.	.	16dd\yy	.	.	.	.	.	.	.	.	.	.	.	.	.	.
8B\yyJ	.	.	8g\Jyy	.	16dd\yy	.	8gg\J	.	.	.	.	.	.	8g/yyJ	8gg\yyJ	.	.	.	.
.	.	.	.	.	16dd\yyJJ	.	.	.	.	.	.	.	.	.	.	.	.	.	.
=122	=122	=122	=122	=122	=122	=122	=122	=122	=122	=122	=122	=122	=122	=122	=122	=122	=122	=122	=122
8c\Lyy	.	.	8g\Lyy	.	16ee\LLyy	.	4ee\	.	2.ryy	2.ryy	2.ryy	0.r	.	8g/Lyy	8gg\Lyy	2.g/	.	2.ee\	.
.	.	.	.	.	16ee\yy	.	.	.	.	.	.	.	.	.	.	.	.	.	.
8c\yy	.	.	8g\yy	.	16ee\yy	.	.	.	.	.	.	.	.	8g/yy	16gg\Lyy	.	.	.	.
.	.	.	.	.	16ee\yy	.	.	.	.	.	.	.	.	.	16gg\JJyy	.	.	.	.
8c\yy	.	.	8g\yy	.	16ee\yy	.	16gg\LL	.	.	.	.	.	.	8g/yy	8gg\yyL	.	.	.	.
.	.	.	.	.	16ee\yy	.	16ff#\	.	.	.	.	.	.	.	.	.	.	.	.
8c\yy	.	.	8g\yy	.	16ee\yy	.	16gg\	.	.	.	.	.	.	8g/yy	8gg\yy	.	.	.	.
.	.	.	.	.	16ee\yy	.	16aa\JJ	.	.	.	.	.	.	.	.	.	.	.	.
8c\yy	.	.	8g\yy	.	16ee\yy	.	8gg\L	.	.	.	.	.	.	8g/yy	8gg\yy	.	.	.	.
.	.	.	.	.	16ee\yy	.	.	.	.	.	.	.	.	.	.	.	.	.	.
8c\Jyy	.	.	8g\Jyy	.	16ee\yy	.	8gg\J	.	.	.	.	.	.	8g/Jyy	8gg\yyJ	.	.	.	.
.	.	.	.	.	16ee\JJyy	.	.	.	.	.	.	.	.	.	.	.	.	.	.
=123	=123	=123	=123	=123	=123	=123	=123	=123	=123	=123	=123	=123	=123	=123	=123	=123	=123	=123	=123
8B\Lyy	.	.	8g\Lyy	.	16dd\LLyy	.	4dd\	.	2.ryy	2.ryy	2.ryy	.	.	8g/Lyy	8gg\Lyy	2.g/	.	2.dd\	.
.	.	.	.	.	16dd\yy	.	.	.	.	.	.	.	.	.	.	.	.	.	.
8B\yy	.	.	8g\yy	.	16dd\yy	.	.	.	.	.	.	.	.	16g/Lyy	16gg\Lyy	.	.	.	.
.	.	.	.	.	16dd\yy	.	.	.	.	.	.	.	.	16g/JJyy	16gg\JJyy	.	.	.	.
8B\yy	.	.	8g\yy	.	16dd\yy	.	16gg\LL	.	.	.	.	.	.	8g/yyL	8gg\yyL	.	.	.	.
.	.	.	.	.	16dd\yy	.	16ff#\	.	.	.	.	.	.	.	.	.	.	.	.
8B\yy	.	.	8g\yy	.	16dd\yy	.	16gg\	.	.	.	.	.	.	8g/yy	8gg\yy	.	.	.	.
.	.	.	.	.	16dd\yy	.	16aa\JJ	.	.	.	.	.	.	.	.	.	.	.	.
8B\yy	.	.	8g\yy	.	16dd\yy	.	8gg\L	.	.	.	.	.	.	8g/yy	8gg\yy	.	.	.	.
.	.	.	.	.	16dd\yy	.	.	.	.	.	.	.	.	.	.	.	.	.	.
8B\Jyy	.	.	8g\Jyy	.	16dd\yy	.	8gg\J	.	.	.	.	.	.	8g/yyJ	8gg\yyJ	.	.	.	.
.	.	.	.	.	16dd\JJyy	.	.	.	.	.	.	.	.	.	.	.	.	.	.
*	*	*	*	*	*	*	*	*	*	*	*	*	*	*	*	*	*	*	*
*	*	*	*	*	*	*	*	*	*	*	*	*	*	*	*	*	*	*	*
*	*	*	*	*	*	*	*	*	*	*	*	*	*	*	*	*	*	*	*
*	*	*	*	*	*	*	*	*	*	*	*	*	*	*	*	*	*	*	*
*Xtremolo	*	*	*	*	*	*	*	*	*	*	*	*	*	*	*	*	*	*	*
=124	=124	=124	=124	=124	=124	=124	=124	=124	=124	=124	=124	=124	=124	=124	=124	=124	=124	=124	=124
.	.	.	.	.	.	.	8qff#/	.	.	.	.	.	.	.	.	.	.	.	.
8c\Lyy	.	.	4g\yy	.	8ee\Lyy	.	8ee\L	.	2.ryy	2.ryy	2.ryy	.	.	4gg\yy	4gg\yy	4g/	.	4ee\	.
8c\yy	.	.	.	.	16dd\Lyy	.	16dd\L	.	.	.	.	.	.	.	.	.	.	.	.
.	.	.	.	.	16cc\JJyy	.	16cc\JJ	.	.	.	.	.	.	.	.	.	.	.	.
8d\yy	.	.	4g\yy	.	4b\yy	.	4b/	.	.	.	.	.	.	4gg\yy	4bb\yy	4b/	.	4gg\	.
8d\yy	.	.	.	.	.	.	.	.	.	.	.	.	.	.	.	.	.	.	.
8D\yy	.	.	4f#\yy	.	4a/yy	.	4a/	.	.	.	.	.	.	4dd/yy	4aa\yy	4a/	.	4ff#\	.
8D\Jyy	.	.	.	.	.	.	.	.	.	.	.	.	.	.	.	.	.	.	.
=125	=125	=125	=125	=125	=125	=125	=125	=125	=125	=125	=125	=125	=125	=125	=125	=125	=125	=125	=125
4G\yy	.	.	4g\yy	.	4g/yy	.	4g/	.	2.ryy	2.ryy	2.ryy	.	.	4b/yy	4gg\yy	4b/	.	4gg\	.
4D\yy	.	.	4d\yy	.	4G/yy 4dyy 4byy	.	4d/ 4b 4gg	.	.	.	.	.	.	4gg\yy	4bb\yy	4b/	.	4gg\	.
4BB/yy	.	.	4d\yy	.	4G/yy 4dyy 4byy	.	4d/ 4b 4gg	.	.	.	.	.	.	4gg\yy	4bb\yy	4b/	.	4gg\	.
=126	=126	=126	=126	=126	=126	=126	=126	=126	=126	=126	=126	=126	=126	=126	=126	=126	=126	=126	=126
4GG/yy	.	.	4d\yy	.	4G/yy 4dyy 4byy	.	4d/ 4b 4gg	.	2.ryy	2.ryy	2.ryy	2.r	.	4gg\yy	4bb\yy	4b/	.	4gg\	.
4G\yy	.	.	4ryy	.	4ryy	.	4r	.	.	.	.	.	.	4ryy	4ryy	4r	.	4r	.
4ryy	.	.	4ryy	.	4ryy	.	4r	.	.	.	.	.	.	4ryy	4ryy	4r	.	4r	.
==	==	==	==	==	==	==	==	==	==	==	==	==	==	==	==	==	==	==	==
*-	*-	*-	*-	*-	*-	*-	*-	*-	*-	*-	*-	*-	*-	*-	*-	*-	*-	*-	*-
!!!system-decoration: [(s1,s2)][(s3,s4)][(s5,s6,s7,s8)][(s9,s10,s11,s12)]
!!!ENC: Katarzyna Serwa
!!!END: 2020-09-19
!!!ENC: Krzysztof Stępień
!!!END: 2022-01-31
!!!YEC: Copyright 2022 Narodowy Instytut Fryderyka Chopina (https://polishscores.org)
!!!YEM: Licence CC BY 4.0 (https://creativecommons.org/licenses/by/4.0)
